;FLAVOR:Marlin
;TIME:3105
;Filament used: 4.60484m
;Layer height: 0.35
;Generated with Cura_SteamEngine 4.0.0
M140 S60
M105
M190 S60
M104 S190
M105
M109 S190
M82 ;absolute extrusion mode
G21 ;metric values
G90 ;absolute positioning
M82 ;set extruder to absolute mode
M107 ;start with the fan off
G28 X0 Y0 ;move X/Y to min endstops
G28 Z0 ;move Z to min endstops
G1 Z15.0 F9000 ;move the platform down 15mm
G92 E0 ;zero the extruded length
G1 F200 E3 ;extrude 3mm of feed stock
G92 E0 ;zero the extruded length again
G1 F9000
;Put printing message on LCD screen
M117 Printing...
G92 E0
G1 F1500 E-6.5
;LAYER_COUNT:171
;LAYER:0
M107
M205 X30 Y30
G0 F3000 X103.156 Y85.464 Z0.3
M205 X20 Y20
;TYPE:SKIRT
G1 F1500 E0
G1 F1800 X103.339 Y85.249 E0.01479
G1 X103.575 Y85.095 E0.02955
G1 X103.845 Y85.012 E0.04435
G1 X104 Y85 E0.05249
G1 X116 Y85 E0.68111
G1 X116.279 Y85.04 E0.69587
G1 X116.536 Y85.156 E0.71065
G1 X116.751 Y85.339 E0.72544
G1 X116.905 Y85.575 E0.7402
G1 X116.988 Y85.845 E0.75499
G1 X117 Y86 E0.76314
G1 X117 Y89.1 E0.92553
G1 X119 Y89.1 E1.0303
G1 X119.279 Y89.14 E1.04507
G1 X119.536 Y89.256 E1.05984
G1 X119.751 Y89.439 E1.07463
G1 X119.905 Y89.675 E1.08939
G1 X119.988 Y89.945 E1.10419
G1 X120 Y90.1 E1.11233
G1 X120 Y93.9 E1.31139
G1 X119.96 Y94.179 E1.32616
G1 X119.844 Y94.436 E1.34093
G1 X119.661 Y94.651 E1.35572
G1 X119.425 Y94.805 E1.37048
G1 X119.155 Y94.888 E1.38528
G1 X119 Y94.9 E1.39342
G1 X117 Y94.9 E1.49819
G1 X117 Y98 E1.66058
G1 X116.96 Y98.279 E1.67535
G1 X116.844 Y98.536 E1.69012
G1 X116.661 Y98.751 E1.70491
G1 X116.425 Y98.905 E1.71967
G1 X116.155 Y98.988 E1.73447
G1 X116 Y99 E1.74261
G1 X104 Y99 E2.37123
G1 X103.721 Y98.96 E2.38599
G1 X103.464 Y98.844 E2.40076
G1 X103.249 Y98.661 E2.41555
G1 X103.095 Y98.425 E2.43031
G1 X103.012 Y98.155 E2.44511
G1 X103 Y98 E2.45326
G1 X103 Y94.9 E2.61565
G1 X101 Y94.9 E2.72042
G1 X100.721 Y94.86 E2.73518
G1 X100.464 Y94.744 E2.74995
G1 X100.249 Y94.561 E2.76474
G1 X100.095 Y94.325 E2.77951
G1 X100.012 Y94.055 E2.7943
G1 X100 Y93.9 E2.80245
G1 X100 Y90.1 E3.00151
G1 X100.04 Y89.821 E3.01627
G1 X100.156 Y89.564 E3.03104
G1 X100.339 Y89.349 E3.04583
G1 X100.575 Y89.195 E3.0606
G1 X100.845 Y89.112 E3.07539
G1 X101 Y89.1 E3.08354
G1 X103 Y89.1 E3.18831
G1 X103 Y86 E3.3507
G1 X103.04 Y85.721 E3.36546
G1 X103.156 Y85.464 E3.38023
M205 X30 Y30
G0 F3000 X103.553 Y85.599
M205 X20 Y20
G1 F1800 X103.726 Y85.466 E3.39167
G1 X104 Y85.4 E3.40643
G1 X116 Y85.4 E4.03505
G1 X116.215 Y85.44 E4.0465
G1 X116.401 Y85.553 E4.0579
G1 X116.534 Y85.726 E4.06933
G1 X116.6 Y86 E4.0841
G1 X116.6 Y89.5 E4.26744
G1 X119 Y89.5 E4.39317
G1 X119.215 Y89.54 E4.40462
G1 X119.401 Y89.653 E4.41602
G1 X119.534 Y89.826 E4.42746
G1 X119.6 Y90.1 E4.44222
G1 X119.6 Y93.9 E4.64128
G1 X119.56 Y94.115 E4.65274
G1 X119.447 Y94.301 E4.66414
G1 X119.274 Y94.434 E4.67557
G1 X119 Y94.5 E4.69033
G1 X116.6 Y94.5 E4.81606
G1 X116.6 Y98 E4.9994
G1 X116.56 Y98.215 E5.01086
G1 X116.447 Y98.401 E5.02226
G1 X116.274 Y98.534 E5.03369
G1 X116 Y98.6 E5.04846
G1 X104 Y98.6 E5.67707
G1 X103.785 Y98.56 E5.68853
G1 X103.599 Y98.447 E5.69993
G1 X103.466 Y98.274 E5.71136
G1 X103.4 Y98 E5.72612
G1 X103.4 Y94.5 E5.90947
G1 X101 Y94.5 E6.03519
G1 X100.785 Y94.46 E6.04665
G1 X100.599 Y94.347 E6.05805
G1 X100.466 Y94.174 E6.06948
G1 X100.4 Y93.9 E6.08425
G1 X100.4 Y90.1 E6.28331
G1 X100.44 Y89.885 E6.29476
G1 X100.553 Y89.699 E6.30616
G1 X100.726 Y89.566 E6.3176
G1 X101 Y89.5 E6.33236
G1 X103.4 Y89.5 E6.45808
G1 X103.4 Y86 E6.64143
G1 X103.44 Y85.785 E6.65288
G1 X103.553 Y85.599 E6.66429
M205 X30 Y30
G0 F3000 X103.839 Y85.881
M205 X20 Y20
G1 F1800 X104 Y85.8 E6.67373
G1 X116 Y85.8 E7.30234
G1 X116.119 Y85.839 E7.3089
G1 X116.2 Y86 E7.31834
G1 X116.2 Y89.9 E7.52264
G1 X119 Y89.9 E7.66932
G1 X119.119 Y89.939 E7.67588
G1 X119.2 Y90.1 E7.68532
G1 X119.2 Y93.9 E7.88439
G1 X119.161 Y94.019 E7.89095
G1 X119 Y94.1 E7.90039
G1 X116.2 Y94.1 E8.04706
G1 X116.2 Y98 E8.25136
G1 X116.161 Y98.119 E8.25792
G1 X116 Y98.2 E8.26737
G1 X104 Y98.2 E8.89598
G1 X103.881 Y98.161 E8.90254
G1 X103.8 Y98 E8.91198
G1 X103.8 Y94.1 E9.11628
G1 X101 Y94.1 E9.26296
G1 X100.881 Y94.061 E9.26952
G1 X100.8 Y93.9 E9.27896
G1 X100.8 Y90.1 E9.47802
G1 X100.839 Y89.981 E9.48458
G1 X101 Y89.9 E9.49402
G1 X103.8 Y89.9 E9.6407
G1 X103.8 Y86 E9.845
G1 X103.839 Y85.881 E9.85156
M205 X30 Y30
G1 F1500 E3.35156
G0 F3000 X103.335 Y85.881
G0 X100.347 Y89.447
G0 X100.347 Y94.553
G0 X103.347 Y98.653
G0 X107.945 Y101.512
M205 X20 Y20
G1 F1500 E9.85156
G1 F1800 X108.1 Y101.5 E9.85971
G1 X111.9 Y101.5 E10.05877
G1 X112.179 Y101.54 E10.07353
G1 X112.436 Y101.656 E10.0883
G1 X112.651 Y101.839 E10.10309
G1 X112.805 Y102.075 E10.11786
G1 X112.888 Y102.345 E10.13265
G1 X112.9 Y102.5 E10.1408
G1 X112.9 Y104.5 E10.24557
G1 X116 Y104.5 E10.40796
G1 X116.279 Y104.54 E10.42272
G1 X116.536 Y104.656 E10.43749
G1 X116.751 Y104.839 E10.45228
G1 X116.905 Y105.075 E10.46705
G1 X116.988 Y105.345 E10.48184
G1 X117 Y105.5 E10.48999
G1 X117 Y108.6 E10.65238
G1 X119 Y108.6 E10.75715
G1 X119.279 Y108.64 E10.77191
G1 X119.536 Y108.756 E10.78669
G1 X119.751 Y108.939 E10.80148
G1 X119.905 Y109.175 E10.81624
G1 X119.988 Y109.445 E10.83103
G1 X120 Y109.6 E10.83918
G1 X120 Y113.4 E11.03824
G1 X119.96 Y113.679 E11.05301
G1 X119.844 Y113.936 E11.06778
G1 X119.661 Y114.151 E11.08257
G1 X119.425 Y114.305 E11.09733
G1 X119.155 Y114.388 E11.11213
G1 X119 Y114.4 E11.12027
G1 X117 Y114.4 E11.22504
G1 X117 Y117.5 E11.38743
G1 X116.96 Y117.779 E11.4022
G1 X116.844 Y118.036 E11.41697
G1 X116.661 Y118.251 E11.43176
G1 X116.425 Y118.405 E11.44652
G1 X116.155 Y118.488 E11.46132
G1 X116 Y118.5 E11.46946
G1 X104 Y118.5 E12.09808
G1 X103.721 Y118.46 E12.11284
G1 X103.464 Y118.344 E12.12761
G1 X103.249 Y118.161 E12.1424
G1 X103.095 Y117.925 E12.15716
G1 X103.012 Y117.655 E12.17196
G1 X103 Y117.5 E12.18011
G1 X103 Y114.4 E12.3425
G1 X101 Y114.4 E12.44727
G1 X100.721 Y114.36 E12.46203
G1 X100.464 Y114.244 E12.4768
G1 X100.249 Y114.061 E12.49159
G1 X100.095 Y113.825 E12.50635
G1 X100.012 Y113.555 E12.52115
G1 X100 Y113.4 E12.5293
G1 X100 Y109.6 E12.72836
G1 X100.04 Y109.321 E12.74312
G1 X100.156 Y109.064 E12.75789
G1 X100.339 Y108.849 E12.77268
G1 X100.575 Y108.695 E12.78745
G1 X100.845 Y108.612 E12.80224
G1 X101 Y108.6 E12.81039
G1 X103 Y108.6 E12.91516
G1 X103 Y105.5 E13.07755
G1 X103.04 Y105.221 E13.09231
G1 X103.156 Y104.964 E13.10708
G1 X103.339 Y104.749 E13.12187
G1 X103.575 Y104.595 E13.13664
G1 X103.845 Y104.512 E13.15143
G1 X104 Y104.5 E13.15958
G1 X107.1 Y104.5 E13.32197
G1 X107.1 Y102.5 E13.42674
G1 X107.14 Y102.221 E13.4415
G1 X107.256 Y101.964 E13.45627
G1 X107.439 Y101.749 E13.47106
G1 X107.675 Y101.595 E13.48583
G1 X107.945 Y101.512 E13.50062
M205 X30 Y30
G0 F3000 X107.826 Y101.966
M205 X20 Y20
G1 F1800 X108.1 Y101.9 E13.51539
G1 X111.9 Y101.9 E13.71445
G1 X112.115 Y101.94 E13.72591
G1 X112.301 Y102.053 E13.73731
G1 X112.434 Y102.226 E13.74874
G1 X112.5 Y102.5 E13.7635
G1 X112.5 Y104.9 E13.88922
G1 X116 Y104.9 E14.07257
G1 X116.215 Y104.94 E14.08403
G1 X116.401 Y105.053 E14.09543
G1 X116.534 Y105.226 E14.10686
G1 X116.6 Y105.5 E14.12162
G1 X116.6 Y109 E14.30497
G1 X119 Y109 E14.43069
G1 X119.215 Y109.04 E14.44215
G1 X119.401 Y109.153 E14.45355
G1 X119.534 Y109.326 E14.46498
G1 X119.6 Y109.6 E14.47974
G1 X119.6 Y113.4 E14.67881
G1 X119.56 Y113.615 E14.69026
G1 X119.447 Y113.801 E14.70166
G1 X119.274 Y113.934 E14.71309
G1 X119 Y114 E14.72786
G1 X116.6 Y114 E14.85358
G1 X116.6 Y117.5 E15.03693
G1 X116.56 Y117.715 E15.04838
G1 X116.447 Y117.901 E15.05979
G1 X116.274 Y118.034 E15.07122
G1 X116 Y118.1 E15.08598
G1 X104 Y118.1 E15.7146
G1 X103.785 Y118.06 E15.72605
G1 X103.599 Y117.947 E15.73745
G1 X103.466 Y117.774 E15.74888
G1 X103.4 Y117.5 E15.76365
G1 X103.4 Y114 E15.947
G1 X101 Y114 E16.07272
G1 X100.785 Y113.96 E16.08417
G1 X100.599 Y113.847 E16.09558
G1 X100.466 Y113.674 E16.10701
G1 X100.4 Y113.4 E16.12177
G1 X100.4 Y109.6 E16.32083
G1 X100.44 Y109.385 E16.33229
G1 X100.553 Y109.199 E16.34369
G1 X100.726 Y109.066 E16.35512
G1 X101 Y109 E16.36988
G1 X103.4 Y109 E16.49561
G1 X103.4 Y105.5 E16.67895
G1 X103.44 Y105.285 E16.69041
G1 X103.553 Y105.099 E16.70181
G1 X103.726 Y104.966 E16.71324
G1 X104 Y104.9 E16.72801
G1 X107.5 Y104.9 E16.91135
G1 X107.5 Y102.5 E17.03708
G1 X107.54 Y102.285 E17.04853
G1 X107.653 Y102.099 E17.05993
G1 X107.826 Y101.966 E17.07136
M205 X30 Y30
G0 F3000 X108.1 Y102.3
M205 X20 Y20
G1 F1800 X111.9 Y102.3 E17.27043
G1 X112.019 Y102.339 E17.27699
G1 X112.1 Y102.5 E17.28643
G1 X112.1 Y105.3 E17.4331
G1 X116 Y105.3 E17.6374
G1 X116.119 Y105.339 E17.64396
G1 X116.2 Y105.5 E17.65341
G1 X116.2 Y109.4 E17.85771
G1 X119 Y109.4 E18.00438
G1 X119.119 Y109.439 E18.01094
G1 X119.2 Y109.6 E18.02038
G1 X119.2 Y113.4 E18.21945
G1 X119.161 Y113.519 E18.22601
G1 X119 Y113.6 E18.23545
G1 X116.2 Y113.6 E18.38212
G1 X116.2 Y117.5 E18.58642
G1 X116.161 Y117.619 E18.59298
G1 X116 Y117.7 E18.60243
G1 X104 Y117.7 E19.23104
G1 X103.881 Y117.661 E19.2376
G1 X103.8 Y117.5 E19.24704
G1 X103.8 Y113.6 E19.45134
G1 X101 Y113.6 E19.59802
G1 X100.881 Y113.561 E19.60458
G1 X100.8 Y113.4 E19.61402
G1 X100.8 Y109.6 E19.81308
G1 X100.839 Y109.481 E19.81964
G1 X101 Y109.4 E19.82909
G1 X103.8 Y109.4 E19.97576
G1 X103.8 Y105.5 E20.18006
G1 X103.839 Y105.381 E20.18662
G1 X104 Y105.3 E20.19606
G1 X107.9 Y105.3 E20.40036
G1 X107.9 Y102.5 E20.54704
G1 X107.939 Y102.381 E20.5536
G1 X108.1 Y102.3 E20.56304
M205 X30 Y30
G1 F1500 E14.06304
G0 F3000 X108.1 Y101.835
G0 X112.553 Y101.847
G0 X121.839 Y104.749
M205 X20 Y20
G1 F1500 E20.56304
G1 F1800 X122.075 Y104.595 E20.57781
G1 X122.345 Y104.512 E20.5926
G1 X122.5 Y104.5 E20.60075
G1 X125.6 Y104.5 E20.76314
G1 X125.6 Y102.5 E20.86791
G1 X125.64 Y102.221 E20.88267
G1 X125.756 Y101.964 E20.89744
G1 X125.939 Y101.749 E20.91223
G1 X126.175 Y101.595 E20.927
G1 X126.445 Y101.512 E20.94179
G1 X126.6 Y101.5 E20.94994
G1 X130.4 Y101.5 E21.149
G1 X130.679 Y101.54 E21.16376
G1 X130.936 Y101.656 E21.17853
G1 X131.151 Y101.839 E21.19332
G1 X131.305 Y102.075 E21.20809
G1 X131.388 Y102.345 E21.22288
G1 X131.4 Y102.5 E21.23103
G1 X131.4 Y104.5 E21.3358
G1 X134.5 Y104.5 E21.49819
G1 X134.779 Y104.54 E21.51295
G1 X135.036 Y104.656 E21.52772
G1 X135.251 Y104.839 E21.54252
G1 X135.405 Y105.075 E21.55728
G1 X135.488 Y105.345 E21.57207
G1 X135.5 Y105.5 E21.58022
G1 X135.5 Y108.6 E21.74261
G1 X137.5 Y108.6 E21.84738
G1 X137.779 Y108.64 E21.86215
G1 X138.036 Y108.756 E21.87692
G1 X138.251 Y108.939 E21.89171
G1 X138.405 Y109.175 E21.90647
G1 X138.488 Y109.445 E21.92127
G1 X138.5 Y109.6 E21.92941
G1 X138.5 Y113.4 E22.12847
G1 X138.46 Y113.679 E22.14324
G1 X138.344 Y113.936 E22.15801
G1 X138.161 Y114.151 E22.1728
G1 X137.925 Y114.305 E22.18756
G1 X137.655 Y114.388 E22.20236
G1 X137.5 Y114.4 E22.2105
G1 X135.5 Y114.4 E22.31527
G1 X135.5 Y117.5 E22.47766
G1 X135.46 Y117.779 E22.49243
G1 X135.344 Y118.036 E22.5072
G1 X135.161 Y118.251 E22.52199
G1 X134.925 Y118.405 E22.53675
G1 X134.655 Y118.488 E22.55155
G1 X134.5 Y118.5 E22.55969
G1 X122.5 Y118.5 E23.18831
G1 X122.221 Y118.46 E23.20307
G1 X121.964 Y118.344 E23.21784
G1 X121.749 Y118.161 E23.23263
G1 X121.595 Y117.925 E23.24739
G1 X121.512 Y117.655 E23.26219
G1 X121.5 Y117.5 E23.27034
G1 X121.5 Y105.5 E23.89895
G1 X121.54 Y105.221 E23.91372
G1 X121.656 Y104.964 E23.92849
G1 X121.839 Y104.749 E23.94328
M205 X30 Y30
G0 F3000 X122.053 Y105.099
M205 X20 Y20
G1 F1800 X122.226 Y104.966 E23.95471
G1 X122.5 Y104.9 E23.96947
G1 X126 Y104.9 E24.15282
G1 X126 Y102.5 E24.27854
G1 X126.04 Y102.285 E24.29
G1 X126.153 Y102.099 E24.3014
G1 X126.326 Y101.966 E24.31283
G1 X126.6 Y101.9 E24.32759
G1 X130.4 Y101.9 E24.52666
G1 X130.615 Y101.94 E24.53811
G1 X130.801 Y102.053 E24.54951
G1 X130.934 Y102.226 E24.56094
G1 X131 Y102.5 E24.57571
G1 X131 Y104.9 E24.70143
G1 X134.5 Y104.9 E24.88478
G1 X134.715 Y104.94 E24.89623
G1 X134.901 Y105.053 E24.90763
G1 X135.034 Y105.226 E24.91907
G1 X135.1 Y105.5 E24.93383
G1 X135.1 Y109 E25.11718
G1 X137.5 Y109 E25.2429
G1 X137.715 Y109.04 E25.25436
G1 X137.901 Y109.153 E25.26576
G1 X138.034 Y109.326 E25.27719
G1 X138.1 Y109.6 E25.29195
G1 X138.1 Y113.4 E25.49101
G1 X138.06 Y113.615 E25.50247
G1 X137.947 Y113.801 E25.51387
G1 X137.774 Y113.934 E25.5253
G1 X137.5 Y114 E25.54007
G1 X135.1 Y114 E25.66579
G1 X135.1 Y117.5 E25.84914
G1 X135.06 Y117.715 E25.86059
G1 X134.947 Y117.901 E25.87199
G1 X134.774 Y118.034 E25.88342
G1 X134.5 Y118.1 E25.89819
G1 X122.5 Y118.1 E26.5268
G1 X122.285 Y118.06 E26.53826
G1 X122.099 Y117.947 E26.54966
G1 X121.966 Y117.774 E26.56109
G1 X121.9 Y117.5 E26.57586
G1 X121.9 Y105.5 E27.20447
G1 X121.94 Y105.285 E27.21593
G1 X122.053 Y105.099 E27.22733
M205 X30 Y30
G0 F3000 X122.339 Y105.381
M205 X20 Y20
G1 F1800 X122.5 Y105.3 E27.23677
G1 X126.4 Y105.3 E27.44107
G1 X126.4 Y102.5 E27.58775
G1 X126.439 Y102.381 E27.59431
G1 X126.6 Y102.3 E27.60375
G1 X130.4 Y102.3 E27.80281
G1 X130.519 Y102.339 E27.80937
G1 X130.6 Y102.5 E27.81881
G1 X130.6 Y105.3 E27.96549
G1 X134.5 Y105.3 E28.16979
G1 X134.619 Y105.339 E28.17635
G1 X134.7 Y105.5 E28.18579
G1 X134.7 Y109.4 E28.39009
G1 X137.5 Y109.4 E28.53677
G1 X137.619 Y109.439 E28.54333
G1 X137.7 Y109.6 E28.55277
G1 X137.7 Y113.4 E28.75183
G1 X137.661 Y113.519 E28.75839
G1 X137.5 Y113.6 E28.76783
G1 X134.7 Y113.6 E28.91451
G1 X134.7 Y117.5 E29.11881
G1 X134.661 Y117.619 E29.12537
G1 X134.5 Y117.7 E29.13481
G1 X122.5 Y117.7 E29.76343
G1 X122.381 Y117.661 E29.76999
G1 X122.3 Y117.5 E29.77943
G1 X122.3 Y105.5 E30.40805
G1 X122.339 Y105.381 E30.41461
M205 X30 Y30
G1 F1500 E23.91461
G0 F3000 X121.835 Y105.381
G0 X119.653 Y114.053
G0 X116.653 Y118.153
G0 X104 Y123
M205 X20 Y20
G1 F1500 E30.41461
G1 F1800 X116 Y123 E31.04322
G1 X116.279 Y123.04 E31.05799
G1 X116.536 Y123.156 E31.07276
G1 X116.751 Y123.339 E31.08755
G1 X116.905 Y123.575 E31.10231
G1 X116.988 Y123.845 E31.11711
G1 X117 Y124 E31.12525
G1 X117 Y127.1 E31.28764
G1 X119 Y127.1 E31.39241
G1 X119.279 Y127.14 E31.40718
G1 X119.536 Y127.256 E31.42195
G1 X119.751 Y127.439 E31.43674
G1 X119.905 Y127.675 E31.4515
G1 X119.988 Y127.945 E31.4663
G1 X120 Y128.1 E31.47444
G1 X120 Y131.9 E31.6735
G1 X119.96 Y132.179 E31.68827
G1 X119.844 Y132.436 E31.70304
G1 X119.661 Y132.651 E31.71783
G1 X119.425 Y132.805 E31.73259
G1 X119.155 Y132.888 E31.74739
G1 X119 Y132.9 E31.75553
G1 X117 Y132.9 E31.8603
G1 X117 Y136 E32.02269
G1 X116.96 Y136.279 E32.03746
G1 X116.844 Y136.536 E32.05223
G1 X116.661 Y136.751 E32.06702
G1 X116.425 Y136.905 E32.08178
G1 X116.155 Y136.988 E32.09658
G1 X116 Y137 E32.10472
G1 X104 Y137 E32.73334
G1 X103.721 Y136.96 E32.7481
G1 X103.464 Y136.844 E32.76287
G1 X103.249 Y136.661 E32.77766
G1 X103.095 Y136.425 E32.79243
G1 X103.012 Y136.155 E32.80722
G1 X103 Y136 E32.81537
G1 X103 Y132.9 E32.97776
G1 X101 Y132.9 E33.08253
G1 X100.721 Y132.86 E33.09729
G1 X100.464 Y132.744 E33.11207
G1 X100.249 Y132.561 E33.12686
G1 X100.095 Y132.325 E33.14162
G1 X100.012 Y132.055 E33.15641
G1 X100 Y131.9 E33.16456
G1 X100 Y128.1 E33.36362
G1 X100.04 Y127.821 E33.37839
G1 X100.156 Y127.564 E33.39316
G1 X100.339 Y127.349 E33.40795
G1 X100.575 Y127.195 E33.42271
G1 X100.845 Y127.112 E33.43751
G1 X101 Y127.1 E33.44565
G1 X103 Y127.1 E33.55042
G1 X103 Y124 E33.71281
G1 X103.04 Y123.721 E33.72758
G1 X103.156 Y123.464 E33.74235
G1 X103.339 Y123.249 E33.75714
G1 X103.575 Y123.095 E33.7719
G1 X103.845 Y123.012 E33.7867
G1 X104 Y123 E33.79484
M205 X30 Y30
G0 F3000 X104 Y123.4
M205 X20 Y20
G1 F1800 X116 Y123.4 E34.42346
G1 X116.215 Y123.44 E34.43491
G1 X116.401 Y123.553 E34.44631
G1 X116.534 Y123.726 E34.45774
G1 X116.6 Y124 E34.47251
G1 X116.6 Y127.5 E34.65585
G1 X119 Y127.5 E34.78158
G1 X119.215 Y127.54 E34.79303
G1 X119.401 Y127.653 E34.80443
G1 X119.534 Y127.826 E34.81587
G1 X119.6 Y128.1 E34.83063
G1 X119.6 Y131.9 E35.02969
G1 X119.56 Y132.115 E35.04115
G1 X119.447 Y132.301 E35.05255
G1 X119.274 Y132.434 E35.06398
G1 X119 Y132.5 E35.07874
G1 X116.6 Y132.5 E35.20447
G1 X116.6 Y136 E35.38781
G1 X116.56 Y136.215 E35.39927
G1 X116.447 Y136.401 E35.41067
G1 X116.274 Y136.534 E35.4221
G1 X116 Y136.6 E35.43687
G1 X104 Y136.6 E36.06548
