;FLAVOR:Marlin
;TIME:3336
;Filament used: 5.60789m
;Layer height: 0.4
;Generated with Cura_SteamEngine 4.0.0
M140 S60
M105
M190 S60
M104 S190
M105
M109 S190
M82 ;absolute extrusion mode
G21 ;metric values
G90 ;absolute positioning
M82 ;set extruder to absolute mode
M107 ;start with the fan off
G28 X0 Y0 ;move X/Y to min endstops
G28 Z0 ;move Z to min endstops
G1 Z15.0 F9000 ;move the platform down 15mm
G92 E0 ;zero the extruded length
G1 F200 E3 ;extrude 3mm of feed stock
G92 E0 ;zero the extruded length again
G1 F9000
;Put printing message on LCD screen
M117 Printing...
G92 E0
G1 F1500 E-6.5
;LAYER_COUNT:150
;LAYER:0
M107
M205 X30 Y30
G0 F3000 X113.541 Y98.5 Z0.3
M205 X20 Y20
;TYPE:SKIRT
G1 F1500 E0
G1 F1800 X113.724 Y98.618 E0.01141
G1 X114.087 Y98.946 E0.03704
G1 X114.392 Y99.329 E0.06268
G1 X114.63 Y99.757 E0.08834
G1 X114.796 Y100.217 E0.11395
G1 X114.885 Y100.698 E0.13958
G1 X114.9 Y101 E0.15542
G1 X116 Y101 E0.21304
G1 X116.488 Y101.04 E0.23869
G1 X116.963 Y101.159 E0.26434
G1 X117.412 Y101.353 E0.28997
G1 X117.824 Y101.618 E0.31563
G1 X118.187 Y101.946 E0.34126
G1 X118.492 Y102.329 E0.3669
G1 X118.73 Y102.757 E0.39256
G1 X118.896 Y103.217 E0.41818
G1 X118.985 Y103.698 E0.4438
G1 X119 Y104 E0.45964
G1 X119 Y105.1 E0.51726
G1 X119.488 Y105.14 E0.54291
G1 X119.963 Y105.259 E0.56856
G1 X120.412 Y105.453 E0.59419
G1 X120.824 Y105.718 E0.61985
G1 X120.996 Y105.873 E0.63198
G1 X121.329 Y105.608 E0.65427
G1 X121.757 Y105.37 E0.67993
G1 X122.217 Y105.204 E0.70554
G1 X122.698 Y105.115 E0.73117
G1 X123 Y105.1 E0.74701
G1 X123 Y104 E0.80463
G1 X123.04 Y103.512 E0.83028
G1 X123.159 Y103.037 E0.85593
G1 X123.353 Y102.588 E0.88155
G1 X123.41 Y102.5 E0.88705
G1 X120.5 Y102.5 E1.03949
G1 X120.012 Y102.46 E1.06514
G1 X119.537 Y102.341 E1.09079
G1 X119.088 Y102.147 E1.11641
G1 X118.676 Y101.882 E1.14207
G1 X118.313 Y101.554 E1.1677
G1 X118.008 Y101.171 E1.19335
G1 X117.77 Y100.743 E1.219
G1 X117.604 Y100.283 E1.24462
G1 X117.515 Y99.802 E1.27024
G1 X117.5 Y99.5 E1.28608
G1 X117.5 Y98.087 E1.3601
G1 X117.243 Y98.23 E1.37551
G1 X116.783 Y98.396 E1.40113
G1 X116.302 Y98.485 E1.42675
G1 X116 Y98.5 E1.44259
G1 X113.541 Y98.5 E1.57141
M205 X30 Y30
G0 F3000 X113.206 Y98.752
M205 X20 Y20
G1 F1800 X113.579 Y99.015 E1.59531
G1 X113.9 Y99.338 E1.61917
G1 X114.159 Y99.713 E1.64304
G1 X114.349 Y100.127 E1.66691
G1 X114.464 Y100.568 E1.69078
G1 X114.5 Y101 E1.71349
G1 X114.5 Y101.4 E1.73444
G1 X116 Y101.4 E1.81302
G1 X116.454 Y101.44 E1.83689
G1 X116.894 Y101.558 E1.86076
G1 X117.306 Y101.752 E1.88461
G1 X117.679 Y102.015 E1.90852
G1 X118 Y102.338 E1.93238
G1 X118.259 Y102.713 E1.95625
G1 X118.449 Y103.127 E1.98011
G1 X118.564 Y103.568 E2.00399
G1 X118.6 Y104 E2.0267
G1 X118.6 Y105.5 E2.10527
G1 X119 Y105.5 E2.12623
G1 X119.454 Y105.54 E2.1501
G1 X119.894 Y105.658 E2.17397
G1 X120.306 Y105.852 E2.19782
G1 X120.679 Y106.115 E2.22173
G1 X121 Y106.438 E2.24558
G1 X121.001 Y106.44 E2.2457
G1 X121.015 Y106.421 E2.24694
G1 X121.338 Y106.1 E2.27079
G1 X121.713 Y105.841 E2.29467
G1 X122.127 Y105.651 E2.31853
G1 X122.568 Y105.536 E2.3424
G1 X123 Y105.5 E2.36511
G1 X123.4 Y105.5 E2.38607
G1 X123.4 Y104 E2.46464
G1 X123.44 Y103.546 E2.48852
G1 X123.558 Y103.106 E2.51238
G1 X123.752 Y102.694 E2.53624
G1 X124.015 Y102.321 E2.56015
G1 X124.237 Y102.1 E2.57655
G1 X120.5 Y102.1 E2.77232
G1 X120.046 Y102.06 E2.79619
G1 X119.606 Y101.942 E2.82005
G1 X119.194 Y101.748 E2.84391
G1 X118.821 Y101.485 E2.86782
G1 X118.5 Y101.162 E2.89167
G1 X118.241 Y100.787 E2.91555
G1 X118.051 Y100.373 E2.93941
G1 X117.936 Y99.932 E2.96328
G1 X117.9 Y99.5 E2.98599
G1 X117.9 Y97.263 E3.10318
G1 X117.662 Y97.5 E3.12077
G1 X117.287 Y97.759 E3.14465
G1 X116.873 Y97.949 E3.16851
G1 X116.432 Y98.064 E3.19238
G1 X116 Y98.1 E3.21509
G1 X104 Y98.1 E3.84371
G1 X103.546 Y98.06 E3.86758
G1 X103.106 Y97.942 E3.89145
G1 X102.694 Y97.748 E3.9153
G1 X102.321 Y97.485 E3.93921
G1 X102 Y97.162 E3.96306
G1 X101.741 Y96.787 E3.98694
G1 X101.551 Y96.373 E4.0108
G1 X101.436 Y95.932 E4.03468
G1 X101.4 Y95.5 E4.05738
G1 X101.4 Y83.5 E4.686
G1 X101.44 Y83.046 E4.70988
G1 X101.558 Y82.606 E4.73374
G1 X101.752 Y82.194 E4.75759
G1 X102.015 Y81.821 E4.7815
G1 X102.338 Y81.5 E4.80536
G1 X102.713 Y81.241 E4.82923
G1 X103.127 Y81.051 E4.85309
G1 X103.568 Y80.936 E4.87697
G1 X104 Y80.9 E4.89968
G1 X105.5 Y80.9 E4.97825
G1 X105.5 Y80.5 E4.99921
G1 X105.54 Y80.046 E5.02308
G1 X105.658 Y79.606 E5.04695
G1 X105.852 Y79.194 E5.0708
G1 X106.115 Y78.821 E5.09471
G1 X106.438 Y78.5 E5.11857
G1 X106.813 Y78.241 E5.14244
G1 X107.227 Y78.051 E5.1663
G1 X107.668 Y77.936 E5.19018
G1 X108.1 Y77.9 E5.21288
G1 X111.9 Y77.9 E5.41195
G1 X112.354 Y77.94 E5.43582
G1 X112.794 Y78.058 E5.45968
G1 X113.206 Y78.252 E5.48354
G1 X113.579 Y78.515 E5.50745
G1 X113.9 Y78.838 E5.5313
G1 X114.159 Y79.213 E5.55518
G1 X114.349 Y79.627 E5.57904
G1 X114.464 Y80.068 E5.60291
G1 X114.5 Y80.5 E5.62562
G1 X114.5 Y80.9 E5.64658
G1 X116 Y80.9 E5.72515
G1 X116.454 Y80.94 E5.74903
G1 X116.894 Y81.058 E5.77289
G1 X117.306 Y81.252 E5.79675
G1 X117.679 Y81.515 E5.82066
G1 X118 Y81.838 E5.84451
G1 X118.259 Y82.213 E5.86838
G1 X118.449 Y82.627 E5.89225
G1 X118.564 Y83.068 E5.91612
G1 X118.6 Y83.5 E5.93883
G1 X118.6 Y85.737 E6.05601
G1 X118.838 Y85.5 E6.07361
G1 X119.213 Y85.241 E6.09748
G1 X119.627 Y85.051 E6.12135
G1 X120.068 Y84.936 E6.14522
G1 X120.5 Y84.9 E6.16793
G1 X122 Y84.9 E6.24651
G1 X122 Y84.5 E6.26746
G1 X122.04 Y84.046 E6.29133
G1 X122.158 Y83.606 E6.3152
G1 X122.352 Y83.194 E6.33905
G1 X122.615 Y82.821 E6.36296
G1 X122.938 Y82.5 E6.38682
G1 X123.313 Y82.241 E6.41069
G1 X123.727 Y82.051 E6.43455
G1 X124.168 Y81.936 E6.45843
G1 X124.6 Y81.9 E6.48114
G1 X128.4 Y81.9 E6.6802
G1 X128.854 Y81.94 E6.70407
G1 X129.294 Y82.058 E6.72794
G1 X129.706 Y82.252 E6.75179
G1 X130.079 Y82.515 E6.7757
G1 X130.4 Y82.838 E6.79955
G1 X130.659 Y83.213 E6.82343
G1 X130.849 Y83.627 E6.84729
G1 X130.964 Y84.068 E6.87117
G1 X131 Y84.5 E6.89387
G1 X131 Y84.9 E6.91483
G1 X132.5 Y84.9 E6.9934
G1 X132.954 Y84.94 E7.01728
G1 X133.394 Y85.058 E7.04114
G1 X133.806 Y85.252 E7.065
G1 X134.179 Y85.515 E7.08891
G1 X134.5 Y85.838 E7.11276
G1 X134.759 Y86.213 E7.13664
G1 X134.949 Y86.627 E7.1605
G1 X135.064 Y87.068 E7.18437
G1 X135.1 Y87.5 E7.20708
G1 X135.1 Y89 E7.28566
G1 X135.5 Y89 E7.30661
G1 X135.954 Y89.04 E7.33049
G1 X136.394 Y89.158 E7.35435
G1 X136.806 Y89.352 E7.37821
G1 X137.179 Y89.615 E7.40211
G1 X137.5 Y89.938 E7.42597
G1 X137.759 Y90.313 E7.44984
G1 X137.949 Y90.727 E7.47371
G1 X138.064 Y91.168 E7.49758
G1 X138.1 Y91.6 E7.52029
G1 X138.1 Y95.4 E7.71935
G1 X138.06 Y95.854 E7.74323
G1 X137.942 Y96.294 E7.76709
G1 X137.748 Y96.706 E7.79094
G1 X137.485 Y97.079 E7.81485
G1 X137.162 Y97.4 E7.83871
G1 X136.787 Y97.659 E7.86258
G1 X136.373 Y97.849 E7.88644
G1 X135.932 Y97.964 E7.91032
G1 X135.5 Y98 E7.93303
G1 X135.1 Y98 E7.95398
G1 X135.1 Y99.5 E8.03256
G1 X135.06 Y99.954 E8.05643
G1 X134.942 Y100.394 E8.0803
G1 X134.748 Y100.806 E8.10415
G1 X134.485 Y101.179 E8.12806
G1 X134.263 Y101.4 E8.14447
G1 X138 Y101.4 E8.34023
G1 X138.454 Y101.44 E8.36411
G1 X138.894 Y101.558 E8.38797
G1 X139.306 Y101.752 E8.41183
G1 X139.679 Y102.015 E8.43573
G1 X140 Y102.338 E8.45959
G1 X140.259 Y102.713 E8.48346
G1 X140.449 Y103.127 E8.50732
G1 X140.564 Y103.568 E8.5312
G1 X140.6 Y104 E8.55391
G1 X140.6 Y105.5 E8.63248
G1 X141 Y105.5 E8.65344
G1 X141.454 Y105.54 E8.67731
G1 X141.894 Y105.658 E8.70118
G1 X142.306 Y105.852 E8.72503
G1 X142.679 Y106.115 E8.74894
G1 X143 Y106.438 E8.7728
G1 X143.259 Y106.813 E8.79667
G1 X143.449 Y107.227 E8.82053
G1 X143.564 Y107.668 E8.84441
G1 X143.6 Y108.1 E8.86711
G1 X143.6 Y111.9 E9.06618
G1 X143.56 Y112.354 E9.09005
G1 X143.442 Y112.794 E9.11392
G1 X143.248 Y113.206 E9.13777
G1 X142.985 Y113.579 E9.16168
G1 X142.662 Y113.9 E9.18553
G1 X142.287 Y114.159 E9.20941
G1 X141.873 Y114.349 E9.23327
G1 X141.432 Y114.464 E9.25714
G1 X141 Y114.5 E9.27985
G1 X140.6 Y114.5 E9.30081
G1 X140.6 Y116 E9.37938
G1 X140.56 Y116.454 E9.40326
G1 X140.442 Y116.894 E9.42712
G1 X140.248 Y117.306 E9.45098
G1 X139.985 Y117.679 E9.47489
G1 X139.662 Y118 E9.49874
G1 X139.287 Y118.259 E9.52262
G1 X138.873 Y118.449 E9.54648
G1 X138.432 Y118.564 E9.57035
G1 X138 Y118.6 E9.59306
G1 X126 Y118.6 E10.22168
G1 X125.546 Y118.56 E10.24555
G1 X125.106 Y118.442 E10.26942
G1 X124.694 Y118.248 E10.29327
G1 X124.321 Y117.985 E10.31718
G1 X124 Y117.662 E10.34103
G1 X123.741 Y117.287 E10.36491
G1 X123.551 Y116.873 E10.38877
G1 X123.436 Y116.432 E10.41264
G1 X123.4 Y116 E10.43535
G1 X123.4 Y114.5 E10.51393
G1 X123 Y114.5 E10.53488
G1 X122.546 Y114.46 E10.55876
G1 X122.106 Y114.342 E10.58262
G1 X121.694 Y114.148 E10.60648
G1 X121.321 Y113.885 E10.63039
G1 X121 Y113.562 E10.65424
G1 X120.999 Y113.56 E10.65436
G1 X120.985 Y113.579 E10.65559
G1 X120.662 Y113.9 E10.67945
G1 X120.287 Y114.159 E10.70332
G1 X119.873 Y114.349 E10.72719
G1 X119.432 Y114.464 E10.75106
G1 X119 Y114.5 E10.77377
G1 X118.6 Y114.5 E10.79472
G1 X118.6 Y116 E10.8733
G1 X118.56 Y116.454 E10.89717
G1 X118.442 Y116.894 E10.92104
G1 X118.248 Y117.306 E10.94489
G1 X117.985 Y117.679 E10.9688
G1 X117.662 Y118 E10.99266
G1 X117.287 Y118.259 E11.01653
G1 X116.873 Y118.449 E11.04039
G1 X116.432 Y118.564 E11.06427
G1 X116 Y118.6 E11.08698
G1 X114.5 Y118.6 E11.16555
G1 X114.5 Y119 E11.18651
G1 X114.46 Y119.454 E11.21038
G1 X114.342 Y119.894 E11.23425
G1 X114.148 Y120.306 E11.2581
G1 X113.885 Y120.679 E11.28201
G1 X113.562 Y121 E11.30586
G1 X113.187 Y121.259 E11.32974
G1 X112.773 Y121.449 E11.3536
G1 X112.332 Y121.564 E11.37747
G1 X111.9 Y121.6 E11.40018
G1 X108.1 Y121.6 E11.59925
G1 X107.646 Y121.56 E11.62312
G1 X107.206 Y121.442 E11.64698
G1 X106.794 Y121.248 E11.67084
G1 X106.421 Y120.985 E11.69475
G1 X106.1 Y120.662 E11.7186
G1 X105.841 Y120.287 E11.74248
G1 X105.651 Y119.873 E11.76634
G1 X105.536 Y119.432 E11.79021
G1 X105.5 Y119 E11.81292
G1 X105.5 Y118.6 E11.83388
G1 X104 Y118.6 E11.91245
G1 X103.546 Y118.56 E11.93633
G1 X103.106 Y118.442 E11.96019
G1 X102.694 Y118.248 E11.98405
G1 X102.321 Y117.985 E12.00795
G1 X102 Y117.662 E12.03181
G1 X101.741 Y117.287 E12.05568
G1 X101.551 Y116.873 E12.07955
G1 X101.436 Y116.432 E12.10342
G1 X101.4 Y116 E12.12613
G1 X101.4 Y114.5 E12.20471
G1 X101 Y114.5 E12.22566
G1 X100.546 Y114.46 E12.24953
G1 X100.106 Y114.342 E12.2734
G1 X99.694 Y114.148 E12.29725
G1 X99.515 Y114.022 E12.30872
G1 X99.442 Y114.294 E12.32347
G1 X99.248 Y114.706 E12.34733
G1 X98.985 Y115.079 E12.37124
G1 X98.662 Y115.4 E12.39509
G1 X98.287 Y115.659 E12.41897
G1 X97.873 Y115.849 E12.44283
G1 X97.432 Y115.964 E12.4667
G1 X97 Y116 E12.48941
G1 X96.6 Y116 E12.51037
G1 X96.6 Y117.5 E12.58894
G1 X96.56 Y117.954 E12.61282
G1 X96.442 Y118.394 E12.63668
G1 X96.248 Y118.806 E12.66054
G1 X95.985 Y119.179 E12.68444
G1 X95.662 Y119.5 E12.7083
G1 X95.287 Y119.759 E12.73217
G1 X94.873 Y119.949 E12.75604
G1 X94.432 Y120.064 E12.77991
G1 X94 Y120.1 E12.80262
G1 X82 Y120.1 E13.43124
G1 X81.546 Y120.06 E13.45511
G1 X81.106 Y119.942 E13.47897
G1 X80.694 Y119.748 E13.50283
G1 X80.321 Y119.485 E13.52674
G1 X80 Y119.162 E13.55059
G1 X79.741 Y118.787 E13.57447
G1 X79.551 Y118.373 E13.59833
G1 X79.436 Y117.932 E13.6222
G1 X79.4 Y117.5 E13.64491
G1 X79.4 Y116 E13.72349
G1 X79 Y116 E13.74444
G1 X78.546 Y115.96 E13.76832
G1 X78.106 Y115.842 E13.79218
G1 X77.694 Y115.648 E13.81604
G1 X77.321 Y115.385 E13.83994
G1 X77 Y115.062 E13.8638
G1 X76.741 Y114.687 E13.88767
G1 X76.551 Y114.273 E13.91154
G1 X76.436 Y113.832 E13.93541
G1 X76.4 Y113.4 E13.95812
G1 X76.4 Y109.6 E14.15718
G1 X76.44 Y109.146 E14.18106
G1 X76.558 Y108.706 E14.20492
G1 X76.752 Y108.294 E14.22877
G1 X77.015 Y107.921 E14.25268
G1 X77.338 Y107.6 E14.27654
G1 X77.713 Y107.341 E14.30041
G1 X78.127 Y107.151 E14.32427
G1 X78.568 Y107.036 E14.34815
G1 X79 Y107 E14.37086
G1 X79.4 Y107 E14.39181
G1 X79.4 Y105.5 E14.47039
G1 X79.44 Y105.046 E14.49426
G1 X79.558 Y104.606 E14.51813
G1 X79.752 Y104.194 E14.54198
G1 X80.015 Y103.821 E14.56589
G1 X80.338 Y103.5 E14.58975
G1 X80.713 Y103.241 E14.61362
G1 X81.127 Y103.051 E14.63748
G1 X81.568 Y102.936 E14.66136
G1 X82 Y102.9 E14.68406
G1 X83.5 Y102.9 E14.76264
G1 X83.5 Y102.5 E14.7836
G1 X83.54 Y102.046 E14.80747
G1 X83.658 Y101.606 E14.83133
G1 X83.852 Y101.194 E14.85519
G1 X84.115 Y100.821 E14.8791
G1 X84.438 Y100.5 E14.90295
G1 X84.813 Y100.241 E14.92683
G1 X85.227 Y100.051 E14.95069
G1 X85.668 Y99.936 E14.97456
G1 X86.1 Y99.9 E14.99727
G1 X89.9 Y99.9 E15.19633
G1 X90.354 Y99.94 E15.22021
G1 X90.794 Y100.058 E15.24407
G1 X91.206 Y100.252 E15.26793
G1 X91.579 Y100.515 E15.29184
G1 X91.9 Y100.838 E15.31569
G1 X92.159 Y101.213 E15.33956
G1 X92.349 Y101.627 E15.36343
G1 X92.464 Y102.068 E15.3873
G1 X92.5 Y102.5 E15.41001
G1 X92.5 Y102.9 E15.43096
G1 X94 Y102.9 E15.50954
G1 X94.454 Y102.94 E15.53342
G1 X94.894 Y103.058 E15.55728
G1 X95.306 Y103.252 E15.58113
G1 X95.679 Y103.515 E15.60504
G1 X96 Y103.838 E15.6289
G1 X96.259 Y104.213 E15.65277
G1 X96.449 Y104.627 E15.67663
G1 X96.564 Y105.068 E15.70051
G1 X96.6 Y105.5 E15.72322
G1 X96.6 Y107 E15.80179
G1 X97 Y107 E15.82275
G1 X97.454 Y107.04 E15.84662
G1 X97.894 Y107.158 E15.87049
G1 X98.306 Y107.352 E15.89434
G1 X98.485 Y107.478 E15.90581
G1 X98.558 Y107.206 E15.92056
G1 X98.752 Y106.794 E15.94442
G1 X99.015 Y106.421 E15.96833
G1 X99.338 Y106.1 E15.99218
G1 X99.713 Y105.841 E16.01605
G1 X100.127 Y105.651 E16.03992
G1 X100.568 Y105.536 E16.06379
G1 X101 Y105.5 E16.0865
G1 X101.4 Y105.5 E16.10745
G1 X101.4 Y104 E16.18603
G1 X101.44 Y103.546 E16.20991
G1 X101.558 Y103.106 E16.23377
G1 X101.752 Y102.694 E16.25762
G1 X102.015 Y102.321 E16.28153
G1 X102.338 Y102 E16.30539
G1 X102.713 Y101.741 E16.32926
G1 X103.127 Y101.551 E16.35312
G1 X103.568 Y101.436 E16.377
G1 X104 Y101.4 E16.39971
G1 X105.5 Y101.4 E16.47828
G1 X105.5 Y101 E16.49924
G1 X105.54 Y100.546 E16.52311
G1 X105.658 Y100.106 E16.54698
G1 X105.852 Y99.694 E16.57083
G1 X106.115 Y99.321 E16.59474
G1 X106.438 Y99 E16.6186
G1 X106.813 Y98.741 E16.64247
G1 X107.227 Y98.551 E16.66633
G1 X107.668 Y98.436 E16.69021
G1 X108.1 Y98.4 E16.71291
G1 X111.9 Y98.4 E16.91198
G1 X112.354 Y98.44 E16.93585
G1 X112.794 Y98.558 E16.95971
G1 X113.206 Y98.752 E16.98357
M205 X30 Y30
G0 F3000 X113.091 Y99.151
M205 X20 Y20
G1 F1800 X113.42 Y99.41 E17.0055
G1 X113.694 Y99.727 E17.02745
G1 X113.903 Y100.09 E17.0494
G1 X114.039 Y100.487 E17.07138
G1 X114.1 Y101 E17.09844
G1 X114.1 Y101.8 E17.14035
G1 X116 Y101.8 E17.23988
G1 X116.417 Y101.84 E17.26183
G1 X116.819 Y101.958 E17.28377
G1 X117.191 Y102.151 E17.30573
G1 X117.52 Y102.41 E17.32766
G1 X117.794 Y102.727 E17.34961
G1 X118.003 Y103.09 E17.37155
G1 X118.139 Y103.487 E17.39354
G1 X118.2 Y104 E17.4206
G1 X118.2 Y105.9 E17.52013
G1 X119 Y105.9 E17.56204
G1 X119.417 Y105.94 E17.58398
G1 X119.819 Y106.058 E17.60593
G1 X120.191 Y106.251 E17.62788
G1 X120.52 Y106.51 E17.64982
G1 X120.794 Y106.827 E17.67177
G1 X121.003 Y107.19 E17.69371
G1 X121.004 Y107.193 E17.69387
G1 X121.151 Y106.909 E17.71063
G1 X121.41 Y106.58 E17.73256
G1 X121.727 Y106.306 E17.75451
G1 X122.09 Y106.097 E17.77645
G1 X122.487 Y105.961 E17.79844
G1 X123 Y105.9 E17.8255
G1 X123.8 Y105.9 E17.86741
G1 X123.8 Y104 E17.96694
G1 X123.84 Y103.583 E17.98888
G1 X123.958 Y103.181 E18.01083
G1 X124.151 Y102.809 E18.03278
G1 X124.41 Y102.48 E18.05472
G1 X124.727 Y102.206 E18.07667
G1 X125.09 Y101.997 E18.09861
G1 X125.487 Y101.861 E18.12059
G1 X126 Y101.8 E18.14765
G1 X138 Y101.8 E18.77627
G1 X138.417 Y101.84 E18.79822
G1 X138.819 Y101.958 E18.82016
G1 X139.191 Y102.151 E18.84212
G1 X139.52 Y102.41 E18.86405
G1 X139.794 Y102.727 E18.886
G1 X140.003 Y103.09 E18.90794
G1 X140.139 Y103.487 E18.92993
G1 X140.2 Y104 E18.95699
G1 X140.2 Y105.9 E19.05652
G1 X141 Y105.9 E19.09843
G1 X141.417 Y105.94 E19.12037
G1 X141.819 Y106.058 E19.14232
G1 X142.191 Y106.251 E19.16427
G1 X142.52 Y106.51 E19.18621
G1 X142.794 Y106.827 E19.20816
G1 X143.003 Y107.19 E19.2301
G1 X143.139 Y107.587 E19.25208
G1 X143.2 Y108.1 E19.27914
G1 X143.2 Y111.9 E19.47821
G1 X143.16 Y112.317 E19.50015
G1 X143.042 Y112.719 E19.5221
G1 X142.849 Y113.091 E19.54405
G1 X142.59 Y113.42 E19.56599
