; generated by PrusaSlicer 2.0.0+linux64 on 2019-07-28 at 19:51:21

; 

; external perimeters extrusion width = 0.60mm
; perimeters extrusion width = 0.50mm
; infill extrusion width = 0.50mm
; solid infill extrusion width = 0.50mm
; top infill extrusion width = 0.45mm
; first layer extrusion width = 0.42mm

M73 P0 R96
M73 Q0 S96
M201 X1000 Y1000 Z1000 E5000 ; sets maximum accelerations, mm/sec^2
M203 X200 Y200 Z12 E120 ; sets maximum feedrates, mm/sec
M204 P1250 R1250 T1250 ; sets acceleration (P, T) and retract acceleration (R), mm/sec^2
M205 X8.00 Y8.00 Z0.40 E1.50 ; sets the jerk limits, mm/sec
M205 S0 T0 ; sets the minimum extruding and travel feed rate, mm/sec
M107
M115 U3.7.2 ; tell printer latest fw version
G90 ; use absolute coordinates
M83 ; extruder relative mode
M104 S200 ; set extruder temp
M140 S60 ; set bed temp
M190 S60 ; wait for bed temp
M109 S200 ; wait for extruder temp
G28 W ; home all without mesh bed level
G80 ; mesh bed leveling
G1 Y-3.0 F1000.0 ; go outside print area
G92 E0.0
G1 X60.0 E9.0 F1000.0 ; intro line
M73 Q0 S96
M73 P0 R96
G1 X100.0 E12.5 F1000.0 ; intro line
G92 E0.0
M221 S95
M900 K30 ; Filament gcode
G21 ; set units to millimeters
G90 ; use absolute coordinates
M83 ; use relative distances for extrusion
;BEFORE_LAYER_CHANGE
G92 E0.0
;0.2


G1 E-0.80000 F2100.00000
G1 Z0.600 F10800.000
;AFTER_LAYER_CHANGE
;0.2
G1 X105.990 Y79.059
G1 Z0.200
G1 E0.80000 F2100.00000
M204 S1000
G1 F1200
G1 X106.733 Y78.828 E0.02439
G1 X143.004 Y78.811 E1.13725
G1 X143.471 Y78.863 E0.01475
G1 X143.917 Y79.013 E0.01475
G1 X144.321 Y79.255 E0.01475
G1 X144.666 Y79.581 E0.01487
G1 X147.825 Y83.892 E0.16758
G1 X148.061 Y84.364 E0.01658
G1 X148.177 Y84.880 E0.01658
G1 X148.188 Y124.922 E1.25548
G1 X148.079 Y125.583 E0.02100
G1 X147.778 Y126.177 E0.02089
G1 X144.621 Y130.471 E0.16710
G1 X143.994 Y130.950 E0.02473
G1 X143.238 Y131.176 E0.02473
G1 X106.978 Y131.188 E1.13692
G1 X106.317 Y131.079 E0.02100
G1 X105.723 Y130.778 E0.02089
G1 X105.259 Y130.326 E0.02032
G1 X102.194 Y126.136 E0.16277
G1 X101.935 Y125.625 E0.01794
G1 X101.817 Y125.062 E0.01805
G1 X101.812 Y85.078 E1.25366
G1 X101.921 Y84.417 E0.02100
G1 X102.222 Y83.823 E0.02089
G1 X105.374 Y79.535 E0.16687
G1 X105.942 Y79.095 E0.02251
G1 F8640
G1 X106.733 Y78.828 E-0.19268
G1 X109.190 Y78.827 E-0.56732
G1 E-0.04000 F2100.00000
G1 Z0.800 F10800.000
G1 X131.210 Y99.210
G1 Z0.200
G1 E0.80000 F2100.00000
G1 F1200
G1 X142.790 Y99.210 E0.36308
G1 X142.790 Y103.310 E0.12855
G1 X145.790 Y103.310 E0.09406
G1 X145.790 Y106.690 E0.10598
G1 X142.790 Y106.690 E0.09406
G1 X142.790 Y110.790 E0.12855
G1 X131.210 Y110.790 E0.36308
G1 X131.210 Y106.690 E0.12855
G1 X128.210 Y106.690 E0.09406
G1 X128.210 Y103.310 E0.10598
G1 X131.210 Y103.310 E0.09406
G1 X131.210 Y99.270 E0.12667
G1 F8640
G1 X134.501 Y99.253 E-0.76000
G1 E-0.04000 F2100.00000
G1 Z0.800 F10800.000
G1 X129.084 Y106.577
G1 Z0.200
G1 E0.80000 F2100.00000
G1 F1200
G1 X128.493 Y105.986 E0.02666
G1 X128.493 Y105.443 E0.01730
G1 X129.457 Y106.407 E0.04348
G1 X129.999 Y106.407 E0.01730
G1 X128.493 Y104.901 E0.06795
G1 X128.493 Y104.358 E0.01730
G1 X130.542 Y106.407 E0.09241
G1 X131.084 Y106.407 E0.01730
G1 X128.493 Y103.816 E0.11688
G1 X128.493 Y103.593 E0.00712
G1 X128.812 Y103.593 E0.01018
G1 X135.727 Y110.507 E0.31188
G1 X136.269 Y110.507 E0.01730
G1 X129.355 Y103.593 E0.31188
G1 X129.897 Y103.593 E0.01730
G1 X136.811 Y110.507 E0.31188
G1 X137.354 Y110.507 E0.01730
G1 X130.439 Y103.593 E0.31188
G1 X130.982 Y103.593 E0.01730
G1 X137.896 Y110.507 E0.31188
G1 X138.439 Y110.507 E0.01730
G1 X131.493 Y103.561 E0.31330
G1 X131.493 Y103.019 E0.01730
G1 X138.981 Y110.507 E0.33777
G1 X139.524 Y110.507 E0.01730
G1 X131.493 Y102.476 E0.36223
G1 X131.493 Y101.934 E0.01730
G1 X140.066 Y110.507 E0.38670
G1 X140.609 Y110.507 E0.01730
G1 X131.493 Y101.391 E0.41117
G1 X131.493 Y100.849 E0.01730
G1 X141.151 Y110.507 E0.43564
G1 X141.693 Y110.507 E0.01730
G1 X131.493 Y100.307 E0.46010
G1 X131.493 Y99.764 E0.01730
G1 X142.236 Y110.507 E0.48457
G1 X142.507 Y110.507 E0.00865
G1 X142.507 Y110.236 E0.00865
G1 X131.764 Y99.493 E0.48457
G1 X132.306 Y99.493 E0.01730
G1 X142.507 Y109.694 E0.46011
G1 X142.507 Y109.151 E0.01730
G1 X132.849 Y99.493 E0.43564
G1 X133.391 Y99.493 E0.01730
G1 X142.507 Y108.609 E0.41117
G1 X142.507 Y108.066 E0.01730
G1 X133.934 Y99.493 E0.38671
G1 X134.476 Y99.493 E0.01730
G1 X142.507 Y107.524 E0.36224
G1 X142.507 Y106.981 E0.01730
G1 X135.019 Y99.493 E0.33777
G1 X135.561 Y99.493 E0.01730
G1 X142.507 Y106.439 E0.31330
G1 X142.507 Y106.407 E0.00101
G1 X143.018 Y106.407 E0.01629
G1 X136.104 Y99.493 E0.31188
G1 X136.646 Y99.493 E0.01730
G1 X143.560 Y106.407 E0.31188
G1 X144.103 Y106.407 E0.01730
G1 X137.188 Y99.493 E0.31188
G1 X137.731 Y99.493 E0.01730
G1 X144.645 Y106.407 E0.31188
G1 X145.188 Y106.407 E0.01730
G1 X138.273 Y99.493 E0.31188
G1 X138.816 Y99.493 E0.01730
G1 X142.507 Y103.184 E0.16650
G1 X142.507 Y102.642 E0.01730
G1 X139.358 Y99.493 E0.14203
G1 X139.901 Y99.493 E0.01730
G1 X142.507 Y102.099 E0.11757
G1 X142.507 Y101.557 E0.01730
G1 X140.443 Y99.493 E0.09310
G1 X140.986 Y99.493 E0.01730
G1 X142.507 Y101.014 E0.06863
G1 X142.507 Y100.472 E0.01730
G1 X141.528 Y99.493 E0.04416
G1 X142.071 Y99.493 E0.01730
G1 X142.677 Y100.099 E0.02735
G1 F8640
G1 X142.071 Y99.493 E-0.19800
G1 X141.528 Y99.493 E-0.12525
G1 X142.507 Y100.472 E-0.31973
G1 X142.507 Y100.979 E-0.11701
G1 E-0.04000 F2100.00000
G1 Z0.800 F10800.000
G1 X142.746 Y103.423
G1 Z0.200
G1 E0.80000 F2100.00000
G1 F1200
G1 X145.507 Y106.184 E0.12454
G1 X145.507 Y105.642 E0.01730
G1 X143.458 Y103.593 E0.09242
G1 X144.001 Y103.593 E0.01730
G1 X145.507 Y105.099 E0.06795
G1 X145.507 Y104.557 E0.01730
G1 X144.543 Y103.593 E0.04348
G1 X145.086 Y103.593 E0.01730
G1 X145.677 Y104.184 E0.02667
G1 F8640
G1 X145.086 Y103.593 E-0.19307
G1 X144.543 Y103.593 E-0.12525
G1 X145.507 Y104.557 E-0.31480
G1 X145.507 Y105.099 E-0.12525
G1 X145.502 Y105.094 E-0.00162
G1 E-0.04000 F2100.00000
G1 Z0.800 F10800.000
G1 X135.354 Y110.677
G1 Z0.200
G1 E0.80000 F2100.00000
G1 F1200
G1 X131.493 Y106.816 E0.17415
G1 X131.493 Y107.358 E0.01730
G1 X134.642 Y110.507 E0.14203
G1 X134.099 Y110.507 E0.01730
G1 X131.493 Y107.901 E0.11756
G1 X131.493 Y108.443 E0.01730
G1 X133.557 Y110.507 E0.09309
G1 X133.014 Y110.507 E0.01730
G1 X131.493 Y108.986 E0.06863
G1 X131.493 Y109.528 E0.01730
G1 X132.472 Y110.507 E0.04416
G1 X131.929 Y110.507 E0.01730
G1 X131.323 Y109.901 E0.02735
G1 F8640
G1 X131.929 Y110.507 E-0.19797
G1 X132.472 Y110.507 E-0.12525
G1 X131.493 Y109.528 E-0.31970
G1 X131.493 Y109.021 E-0.11707
G1 E-0.04000 F2100.00000
G1 Z0.800 F10800.000
G1 X131.323 Y92.790
G1 Z0.200
G1 E0.80000 F2100.00000
G1 F1200
G1 X131.210 Y92.790 E0.00355
G1 X131.210 Y88.690 E0.12855
G1 X128.210 Y88.690 E0.09406
G1 X128.210 Y85.310 E0.10598
G1 X131.210 Y85.310 E0.09406
G1 X131.210 Y81.210 E0.12855
G1 X142.790 Y81.210 E0.36308
G1 X142.790 Y85.310 E0.12855
G1 X145.790 Y85.310 E0.09406
G1 X145.790 Y88.690 E0.10598
G1 X142.790 Y88.690 E0.09406
G1 X142.790 Y92.790 E0.12855
G1 X131.383 Y92.790 E0.35766
G1 X131.323 Y91.901 F10800.000
G1 F1200
G1 X131.929 Y92.507 E0.02735
G1 X132.472 Y92.507 E0.01730
G1 X131.493 Y91.528 E0.04416
G1 X131.493 Y90.986 E0.01730
G1 X133.014 Y92.507 E0.06863
G1 X133.557 Y92.507 E0.01730
G1 X131.493 Y90.443 E0.09309
G1 X131.493 Y89.901 E0.01730
G1 X134.099 Y92.507 E0.11756
G1 X134.642 Y92.507 E0.01730
G1 X131.493 Y89.358 E0.14203
G1 X131.493 Y88.816 E0.01730
G1 X135.354 Y92.677 E0.17415
G1 F8640
G1 X133.026 Y90.350 E-0.76000
G1 E-0.04000 F2100.00000
G1 Z0.800 F10800.000
G1 X129.084 Y88.577
G1 Z0.200
G1 E0.80000 F2100.00000
G1 F1200
G1 X128.493 Y87.986 E0.02666
G1 X128.493 Y87.443 E0.01730
G1 X129.457 Y88.407 E0.04348
G1 X129.999 Y88.407 E0.01730
G1 X128.493 Y86.901 E0.06795
G1 X128.493 Y86.358 E0.01730
G1 X130.542 Y88.407 E0.09241
G1 X131.084 Y88.407 E0.01730
G1 X128.493 Y85.816 E0.11688
G1 X128.493 Y85.593 E0.00712
G1 X128.812 Y85.593 E0.01018
G1 X135.727 Y92.507 E0.31188
G1 X136.269 Y92.507 E0.01730
G1 X129.355 Y85.593 E0.31188
G1 X129.897 Y85.593 E0.01730
G1 X136.811 Y92.507 E0.31188
G1 X137.354 Y92.507 E0.01730
G1 X130.439 Y85.593 E0.31188
G1 X130.982 Y85.593 E0.01730
G1 X137.896 Y92.507 E0.31188
G1 X138.439 Y92.507 E0.01730
G1 X131.493 Y85.561 E0.31330
G1 X131.493 Y85.019 E0.01730
G1 X138.981 Y92.507 E0.33777
G1 X139.524 Y92.507 E0.01730
G1 X131.493 Y84.476 E0.36223
G1 X131.493 Y83.934 E0.01730
G1 X140.066 Y92.507 E0.38670
G1 X140.609 Y92.507 E0.01730
G1 X131.493 Y83.391 E0.41117
G1 X131.493 Y82.849 E0.01730
G1 X141.151 Y92.507 E0.43564
G1 X141.693 Y92.507 E0.01730
G1 X131.493 Y82.307 E0.46010
G1 X131.493 Y81.764 E0.01730
G1 X142.236 Y92.507 E0.48457
G1 X142.507 Y92.507 E0.00865
G1 X142.507 Y92.236 E0.00865
G1 X131.764 Y81.493 E0.48457
G1 X132.306 Y81.493 E0.01730
G1 X142.507 Y91.694 E0.46011
G1 X142.507 Y91.151 E0.01730
G1 X132.849 Y81.493 E0.43564
G1 X133.391 Y81.493 E0.01730
G1 X142.507 Y90.609 E0.41117
G1 X142.507 Y90.066 E0.01730
G1 X133.934 Y81.493 E0.38671
G1 X134.476 Y81.493 E0.01730
G1 X142.507 Y89.524 E0.36224
G1 X142.507 Y88.981 E0.01730
G1 X135.019 Y81.493 E0.33777
G1 X135.561 Y81.493 E0.01730
G1 X142.507 Y88.439 E0.31330
G1 X142.507 Y88.407 E0.00101
G1 X143.018 Y88.407 E0.01629
G1 X136.104 Y81.493 E0.31188
G1 X136.646 Y81.493 E0.01730
G1 X143.560 Y88.407 E0.31188
G1 X144.103 Y88.407 E0.01730
G1 X137.188 Y81.493 E0.31188
G1 X137.731 Y81.493 E0.01730
G1 X144.645 Y88.407 E0.31188
G1 X145.188 Y88.407 E0.01730
G1 X138.273 Y81.493 E0.31188
G1 X138.816 Y81.493 E0.01730
G1 X142.507 Y85.184 E0.16650
M73 Q1 S95
G1 X142.507 Y84.642 E0.01730
G1 X139.358 Y81.493 E0.14203
M73 P1 R95
G1 X139.901 Y81.493 E0.01730
G1 X142.507 Y84.099 E0.11757
G1 X142.507 Y83.557 E0.01730
G1 X140.443 Y81.493 E0.09310
G1 X140.986 Y81.493 E0.01730
G1 X142.507 Y83.014 E0.06863
G1 X142.507 Y82.472 E0.01730
G1 X141.528 Y81.493 E0.04416
G1 X142.071 Y81.493 E0.01730
G1 X142.677 Y82.099 E0.02735
G1 F8640
G1 X142.071 Y81.493 E-0.19800
G1 X141.528 Y81.493 E-0.12525
G1 X142.507 Y82.472 E-0.31973
G1 X142.507 Y82.979 E-0.11701
G1 E-0.04000 F2100.00000
G1 Z0.800 F10800.000
G1 X142.746 Y85.423
G1 Z0.200
G1 E0.80000 F2100.00000
G1 F1200
G1 X145.507 Y88.184 E0.12454
G1 X145.507 Y87.642 E0.01730
G1 X143.458 Y85.593 E0.09242
G1 X144.001 Y85.593 E0.01730
G1 X145.507 Y87.099 E0.06795
G1 X145.507 Y86.557 E0.01730
G1 X144.543 Y85.593 E0.04348
G1 X145.086 Y85.593 E0.01730
G1 X145.677 Y86.184 E0.02667
G1 F8640
G1 X145.086 Y85.593 E-0.19307
G1 X144.543 Y85.593 E-0.12525
G1 X145.507 Y86.557 E-0.31480
G1 X145.507 Y87.099 E-0.12525
G1 X145.502 Y87.094 E-0.00162
G1 E-0.04000 F2100.00000
G1 Z0.800 F10800.000
G1 X118.790 Y85.310
G1 Z0.200
G1 E0.80000 F2100.00000
G1 F1200
G1 X121.790 Y85.310 E0.09406
G1 X121.790 Y88.690 E0.10598
G1 X118.790 Y88.690 E0.09406
G1 X118.790 Y92.790 E0.12855
G1 X107.210 Y92.790 E0.36308
G1 X107.210 Y88.690 E0.12855
G1 X104.210 Y88.690 E0.09406
G1 X104.210 Y85.310 E0.10598
G1 X107.210 Y85.310 E0.09406
G1 X107.210 Y81.210 E0.12855
G1 X118.790 Y81.210 E0.36308
G1 X118.790 Y85.250 E0.12667
G1 X118.746 Y85.423 F10800.000
G1 F1200
G1 X121.507 Y88.184 E0.12454
G1 X121.507 Y87.642 E0.01730
G1 X119.458 Y85.593 E0.09242
G1 X120.001 Y85.593 E0.01730
G1 X121.507 Y87.099 E0.06795
G1 X121.507 Y86.557 E0.01730
G1 X120.543 Y85.593 E0.04348
G1 X121.086 Y85.593 E0.01730
G1 X121.677 Y86.184 E0.02667
G1 F8640
G1 X121.086 Y85.593 E-0.19307
G1 X120.543 Y85.593 E-0.12525
G1 X121.507 Y86.557 E-0.31480
G1 X121.507 Y87.099 E-0.12525
G1 X121.502 Y87.094 E-0.00162
G1 E-0.04000 F2100.00000
G1 Z0.800 F10800.000
G1 X118.677 Y82.099
G1 Z0.200
G1 E0.80000 F2100.00000
G1 F1200
G1 X118.071 Y81.493 E0.02735
G1 X117.528 Y81.493 E0.01730
G1 X118.507 Y82.472 E0.04416
G1 X118.507 Y83.014 E0.01730
G1 X116.986 Y81.493 E0.06863
G1 X116.443 Y81.493 E0.01730
G1 X118.507 Y83.557 E0.09310
G1 X118.507 Y84.099 E0.01730
G1 X115.901 Y81.493 E0.11757
G1 X115.358 Y81.493 E0.01730
G1 X118.507 Y84.642 E0.14203
G1 X118.507 Y85.184 E0.01730
G1 X114.816 Y81.493 E0.16650
G1 X114.273 Y81.493 E0.01730
G1 X121.188 Y88.407 E0.31188
G1 X120.645 Y88.407 E0.01730
G1 X113.731 Y81.493 E0.31188
G1 X113.188 Y81.493 E0.01730
G1 X120.103 Y88.407 E0.31188
G1 X119.560 Y88.407 E0.01730
G1 X112.646 Y81.493 E0.31188
G1 X112.104 Y81.493 E0.01730
G1 X119.018 Y88.407 E0.31188
G1 X118.507 Y88.407 E0.01629
G1 X118.507 Y88.439 E0.00101
G1 X111.561 Y81.493 E0.31330
G1 X111.019 Y81.493 E0.01730
G1 X118.507 Y88.981 E0.33777
G1 X118.507 Y89.524 E0.01730
G1 X110.476 Y81.493 E0.36224
G1 X109.934 Y81.493 E0.01730
G1 X118.507 Y90.066 E0.38671
G1 X118.507 Y90.609 E0.01730
G1 X109.391 Y81.493 E0.41117
G1 X108.849 Y81.493 E0.01730
G1 X118.507 Y91.151 E0.43564
G1 X118.507 Y91.694 E0.01730
G1 X108.306 Y81.493 E0.46011
G1 X107.764 Y81.493 E0.01730
G1 X118.507 Y92.236 E0.48457
G1 X118.507 Y92.507 E0.00865
G1 X118.236 Y92.507 E0.00865
G1 X107.493 Y81.764 E0.48457
G1 X107.493 Y82.307 E0.01730
G1 X117.693 Y92.507 E0.46010
G1 X117.151 Y92.507 E0.01730
G1 X107.493 Y82.849 E0.43564
G1 X107.493 Y83.391 E0.01730
G1 X116.609 Y92.507 E0.41117
G1 X116.066 Y92.507 E0.01730
G1 X107.493 Y83.934 E0.38670
G1 X107.493 Y84.476 E0.01730
G1 X115.524 Y92.507 E0.36223
G1 X114.981 Y92.507 E0.01730
G1 X107.493 Y85.019 E0.33777
G1 X107.493 Y85.561 E0.01730
G1 X114.439 Y92.507 E0.31330
G1 X113.896 Y92.507 E0.01730
G1 X106.982 Y85.593 E0.31188
G1 X106.439 Y85.593 E0.01730
G1 X113.354 Y92.507 E0.31188
G1 X112.811 Y92.507 E0.01730
G1 X105.897 Y85.593 E0.31188
G1 X105.355 Y85.593 E0.01730
G1 X112.269 Y92.507 E0.31188
G1 X111.727 Y92.507 E0.01730
G1 X104.812 Y85.593 E0.31188
G1 X104.493 Y85.593 E0.01018
G1 X104.493 Y85.816 E0.00712
G1 X107.084 Y88.407 E0.11688
G1 X106.542 Y88.407 E0.01730
G1 X104.493 Y86.358 E0.09241
G1 X104.493 Y86.901 E0.01730
G1 X105.999 Y88.407 E0.06795
G1 X105.457 Y88.407 E0.01730
G1 X104.493 Y87.443 E0.04348
G1 X104.493 Y87.986 E0.01730
G1 X105.084 Y88.577 E0.02666
G1 F8640
G1 X104.493 Y87.986 E-0.19304
G1 X104.493 Y87.443 E-0.12525
G1 X105.457 Y88.407 E-0.31477
G1 X105.999 Y88.407 E-0.12525
G1 X105.994 Y88.402 E-0.00168
G1 E-0.04000 F2100.00000
G1 Z0.800 F10800.000
G1 X107.323 Y91.901
G1 Z0.200
G1 E0.80000 F2100.00000
G1 F1200
G1 X107.929 Y92.507 E0.02735
G1 X108.472 Y92.507 E0.01730
G1 X107.493 Y91.528 E0.04416
G1 X107.493 Y90.986 E0.01730
G1 X109.014 Y92.507 E0.06863
G1 X109.557 Y92.507 E0.01730
G1 X107.493 Y90.443 E0.09309
G1 X107.493 Y89.901 E0.01730
G1 X110.099 Y92.507 E0.11756
G1 X110.642 Y92.507 E0.01730
G1 X107.493 Y89.358 E0.14203
G1 X107.493 Y88.816 E0.01730
G1 X111.354 Y92.677 E0.17415
G1 F8640
G1 X109.026 Y90.350 E-0.76000
G1 E-0.04000 F2100.00000
G1 Z0.800 F10800.000
G1 X118.790 Y103.310
G1 Z0.200
G1 E0.80000 F2100.00000
G1 F1200
G1 X121.790 Y103.310 E0.09406
G1 X121.790 Y106.690 E0.10598
G1 X118.790 Y106.690 E0.09406
G1 X118.790 Y110.790 E0.12855
G1 X107.210 Y110.790 E0.36308
G1 X107.210 Y106.690 E0.12855
G1 X104.210 Y106.690 E0.09406
G1 X104.210 Y103.310 E0.10598
G1 X107.210 Y103.310 E0.09406
G1 X107.210 Y99.210 E0.12855
G1 X118.790 Y99.210 E0.36308
G1 X118.790 Y103.250 E0.12667
G1 X118.746 Y103.423 F10800.000
G1 F1200
G1 X121.507 Y106.184 E0.12454
G1 X121.507 Y105.642 E0.01730
G1 X119.458 Y103.593 E0.09242
G1 X120.001 Y103.593 E0.01730
G1 X121.507 Y105.099 E0.06795
G1 X121.507 Y104.557 E0.01730
G1 X120.543 Y103.593 E0.04348
G1 X121.086 Y103.593 E0.01730
G1 X121.677 Y104.184 E0.02667
G1 F8640
G1 X121.086 Y103.593 E-0.19307
G1 X120.543 Y103.593 E-0.12525
G1 X121.507 Y104.557 E-0.31480
G1 X121.507 Y105.099 E-0.12525
G1 X121.502 Y105.094 E-0.00162
G1 E-0.04000 F2100.00000
G1 Z0.800 F10800.000
G1 X118.677 Y100.099
G1 Z0.200
G1 E0.80000 F2100.00000
G1 F1200
G1 X118.071 Y99.493 E0.02735
G1 X117.528 Y99.493 E0.01730
G1 X118.507 Y100.472 E0.04416
G1 X118.507 Y101.014 E0.01730
G1 X116.986 Y99.493 E0.06863
G1 X116.443 Y99.493 E0.01730
G1 X118.507 Y101.557 E0.09310
G1 X118.507 Y102.099 E0.01730
G1 X115.901 Y99.493 E0.11757
G1 X115.358 Y99.493 E0.01730
G1 X118.507 Y102.642 E0.14203
G1 X118.507 Y103.184 E0.01730
G1 X114.816 Y99.493 E0.16650
G1 X114.273 Y99.493 E0.01730
