; generated by PrusaSlicer 2.0.0+linux64 on 2019-07-31 at 21:42:49

; 

; external perimeters extrusion width = 0.60mm
; perimeters extrusion width = 0.50mm
; infill extrusion width = 0.50mm
; solid infill extrusion width = 0.50mm
; top infill extrusion width = 0.45mm
; first layer extrusion width = 0.42mm

M73 P0 R98
M73 Q0 S98
M201 X1000 Y1000 Z1000 E5000 ; sets maximum accelerations, mm/sec^2
M203 X200 Y200 Z12 E120 ; sets maximum feedrates, mm/sec
M204 P1250 R1250 T1250 ; sets acceleration (P, T) and retract acceleration (R), mm/sec^2
M205 X8.00 Y8.00 Z0.40 E1.50 ; sets the jerk limits, mm/sec
M205 S0 T0 ; sets the minimum extruding and travel feed rate, mm/sec
M107
M115 U3.7.2 ; tell printer latest fw version
G90 ; use absolute coordinates
M83 ; extruder relative mode
M104 S200 ; set extruder temp
M140 S60 ; set bed temp
M190 S60 ; wait for bed temp
M109 S200 ; wait for extruder temp
G28 W ; home all without mesh bed level
G80 ; mesh bed leveling
G1 Y-3.0 F1000.0 ; go outside print area
G92 E0.0
G1 X60.0 E9.0 F1000.0 ; intro line
M73 Q0 S98
M73 P0 R98
G1 X100.0 E12.5 F1000.0 ; intro line
G92 E0.0
M221 S95
M900 K30 ; Filament gcode
G21 ; set units to millimeters
G90 ; use absolute coordinates
M83 ; use relative distances for extrusion
;BEFORE_LAYER_CHANGE
G92 E0.0
;0.2


G1 E-0.80000 F2100.00000
G1 Z0.600 F10800.000
;AFTER_LAYER_CHANGE
;0.2
G1 X94.801 Y88.282
G1 Z0.200
G1 E0.80000 F2100.00000
M204 S1000
G1 F1200
G1 X95.625 Y87.854 E0.02911
G1 X140.741 Y75.859 E1.46373
G1 X153.201 Y75.811 E0.39066
G1 X153.976 Y75.955 E0.02473
G1 X154.651 Y76.364 E0.02473
G1 X155.136 Y76.986 E0.02473
G1 X155.370 Y77.739 E0.02473
G1 X158.990 Y124.024 E1.45567
G1 X158.990 Y127.969 E0.12370
G1 X158.840 Y128.700 E0.02338
G1 X158.569 Y129.192 E0.01763
G1 X155.554 Y133.313 E0.16009
G1 X155.196 Y133.688 E0.01623
G1 X154.580 Y134.046 E0.02236
G1 X153.881 Y134.187 E0.02236
G1 X141.584 Y134.178 E0.38556
G1 X99.964 Y128.130 E1.31866
G1 X99.489 Y128.001 E0.01544
G1 X99.052 Y127.767 E0.01555
G1 X94.884 Y124.718 E0.16191
G1 X94.512 Y124.363 E0.01612
G1 X91.375 Y120.078 E0.16652
G1 X91.142 Y119.620 E0.01612
G1 X91.023 Y119.120 E0.01612
G1 X91.009 Y94.049 E0.78608
G1 X91.104 Y93.429 E0.01964
G1 X91.368 Y92.865 E0.01953
G1 X94.446 Y88.654 E0.16356
G1 X94.759 Y88.325 E0.01424
G1 F8640
G1 X95.625 Y87.854 E-0.22754
G1 X97.854 Y87.262 E-0.53246
G1 E-0.04000 F2100.00000
G1 Z0.800 F10800.000
G1 X148.887 Y89.790
G1 Z0.200
G1 E0.80000 F2100.00000
G1 F1200
G1 X148.887 Y92.790 E0.09406
G1 X145.507 Y92.790 E0.10598
G1 X145.507 Y89.790 E0.09406
G1 X141.407 Y89.790 E0.12855
G1 X141.407 Y78.210 E0.36308
G1 X152.987 Y78.210 E0.36308
G1 X152.987 Y89.790 E0.36308
G1 X148.947 Y89.790 E0.12667
G1 F8640
G1 X148.887 Y92.790 E-0.69285
G1 X148.596 Y92.790 E-0.06715
G1 E-0.04000 F2100.00000
G1 Z0.800 F10800.000
G1 X148.551 Y92.677
G1 Z0.200
G1 E0.80000 F2100.00000
G1 F1200
G1 X145.790 Y89.916 E0.12453
G1 X145.790 Y90.458 E0.01730
G1 X147.839 Y92.507 E0.09241
G1 X147.296 Y92.507 E0.01730
G1 X145.790 Y91.001 E0.06795
G1 X145.790 Y91.543 E0.01730
G1 X146.754 Y92.507 E0.04348
G1 X146.211 Y92.507 E0.01730
G1 X145.620 Y91.916 E0.02666
G1 F8640
G1 X146.211 Y92.507 E-0.19304
G1 X146.754 Y92.507 E-0.12525
G1 X145.790 Y91.543 E-0.31477
G1 X145.790 Y91.001 E-0.12525
G1 X145.795 Y91.006 E-0.00168
G1 E-0.04000 F2100.00000
G1 Z0.800 F10800.000
G1 X142.296 Y89.677
G1 Z0.200
G1 E0.80000 F2100.00000
G1 F1200
G1 X141.690 Y89.071 E0.02735
G1 X141.690 Y88.528 E0.01730
G1 X142.669 Y89.507 E0.04416
G1 X143.211 Y89.507 E0.01730
G1 X141.690 Y87.986 E0.06863
G1 X141.690 Y87.443 E0.01730
G1 X143.754 Y89.507 E0.09309
G1 X144.296 Y89.507 E0.01730
G1 X141.690 Y86.901 E0.11756
G1 X141.690 Y86.358 E0.01730
G1 X144.839 Y89.507 E0.14203
G1 X145.381 Y89.507 E0.01730
G1 X141.690 Y85.816 E0.16650
G1 X141.690 Y85.273 E0.01730
G1 X148.604 Y92.188 E0.31188
G1 X148.604 Y91.645 E0.01730
G1 X141.690 Y84.731 E0.31188
G1 X141.690 Y84.189 E0.01730
G1 X148.604 Y91.103 E0.31188
G1 X148.604 Y90.561 E0.01730
G1 X141.690 Y83.646 E0.31188
G1 X141.690 Y83.104 E0.01730
G1 X148.604 Y90.018 E0.31188
G1 X148.604 Y89.507 E0.01629
G1 X148.636 Y89.507 E0.00101
G1 X141.690 Y82.561 E0.31330
G1 X141.690 Y82.019 E0.01730
G1 X149.178 Y89.507 E0.33777
G1 X149.721 Y89.507 E0.01730
G1 X141.690 Y81.476 E0.36223
G1 X141.690 Y80.934 E0.01730
G1 X150.263 Y89.507 E0.38670
G1 X150.806 Y89.507 E0.01730
G1 X141.690 Y80.391 E0.41117
G1 X141.690 Y79.849 E0.01730
G1 X151.348 Y89.507 E0.43564
G1 X151.891 Y89.507 E0.01730
G1 X141.690 Y79.307 E0.46010
G1 X141.690 Y78.764 E0.01730
G1 X152.433 Y89.507 E0.48457
G1 X152.704 Y89.507 E0.00865
G1 X152.704 Y89.236 E0.00865
G1 X141.961 Y78.493 E0.48457
G1 X142.504 Y78.493 E0.01730
G1 X152.704 Y88.694 E0.46011
G1 X152.704 Y88.151 E0.01730
G1 X143.046 Y78.493 E0.43564
G1 X143.589 Y78.493 E0.01730
G1 X152.704 Y87.609 E0.41117
G1 X152.704 Y87.066 E0.01730
G1 X144.131 Y78.493 E0.38671
G1 X144.673 Y78.493 E0.01730
G1 X152.704 Y86.524 E0.36224
G1 X152.704 Y85.981 E0.01730
G1 X145.216 Y78.493 E0.33777
G1 X145.758 Y78.493 E0.01730
G1 X152.704 Y85.439 E0.31330
G1 X152.704 Y84.896 E0.01730
G1 X146.301 Y78.493 E0.28884
G1 X146.843 Y78.493 E0.01730
G1 X152.704 Y84.354 E0.26437
G1 X152.704 Y83.812 E0.01730
G1 X147.386 Y78.493 E0.23990
G1 X147.928 Y78.493 E0.01730
G1 X152.704 Y83.269 E0.21543
G1 X152.704 Y82.727 E0.01730
G1 X148.471 Y78.493 E0.19097
G1 X149.013 Y78.493 E0.01730
G1 X152.704 Y82.184 E0.16650
G1 X152.704 Y81.642 E0.01730
G1 X149.555 Y78.493 E0.14203
G1 X150.098 Y78.493 E0.01730
G1 X152.704 Y81.099 E0.11757
G1 X152.704 Y80.557 E0.01730
G1 X150.640 Y78.493 E0.09310
G1 X151.183 Y78.493 E0.01730
G1 X152.704 Y80.014 E0.06863
G1 X152.704 Y79.472 E0.01730
G1 X151.725 Y78.493 E0.04416
G1 X152.268 Y78.493 E0.01730
G1 X152.874 Y79.099 E0.02735
G1 F8640
G1 X152.268 Y78.493 E-0.19800
G1 X151.725 Y78.493 E-0.12525
G1 X152.704 Y79.472 E-0.31973
G1 X152.704 Y79.979 E-0.11701
G1 E-0.04000 F2100.00000
G1 Z0.800 F10800.000
G1 X151.446 Y99.210
G1 Z0.200
G1 E0.80000 F2100.00000
G1 F1200
G1 X151.446 Y110.790 E0.36308
G1 X147.346 Y110.790 E0.12855
G1 X147.346 Y113.790 E0.09406
G1 X143.966 Y113.790 E0.10598
G1 X143.966 Y110.790 E0.09406
G1 X139.866 Y110.790 E0.12855
G1 X139.866 Y106.690 E0.12855
G1 X136.866 Y106.690 E0.09406
G1 X136.866 Y103.310 E0.10598
G1 X139.866 Y103.310 E0.09406
G1 X139.866 Y99.210 E0.12855
G1 X151.386 Y99.210 E0.36120
G1 X151.333 Y100.099 F10800.000
G1 F1200
G1 X150.727 Y99.493 E0.02735
G1 X150.184 Y99.493 E0.01730
G1 X151.163 Y100.472 E0.04416
G1 X151.163 Y101.014 E0.01730
G1 X149.642 Y99.493 E0.06863
G1 X149.099 Y99.493 E0.01730
G1 X151.163 Y101.557 E0.09310
G1 X151.163 Y102.099 E0.01730
G1 X148.557 Y99.493 E0.11757
G1 X148.014 Y99.493 E0.01730
G1 X151.163 Y102.642 E0.14203
G1 X151.163 Y103.184 E0.01730
G1 X147.472 Y99.493 E0.16650
G1 X146.929 Y99.493 E0.01730
G1 X151.163 Y103.727 E0.19097
G1 X151.163 Y104.269 E0.01730
G1 X146.387 Y99.493 E0.21543
G1 X145.845 Y99.493 E0.01730
G1 X151.163 Y104.812 E0.23990
G1 X151.163 Y105.354 E0.01730
G1 X145.302 Y99.493 E0.26437
G1 X144.760 Y99.493 E0.01730
G1 X151.163 Y105.896 E0.28884
G1 X151.163 Y106.439 E0.01730
G1 X144.217 Y99.493 E0.31330
G1 X143.675 Y99.493 E0.01730
G1 X151.163 Y106.981 E0.33777
G1 X151.163 Y107.524 E0.01730
G1 X143.132 Y99.493 E0.36224
G1 X142.590 Y99.493 E0.01730
G1 X151.163 Y108.066 E0.38671
G1 X151.163 Y108.609 E0.01730
G1 X142.047 Y99.493 E0.41117
G1 X141.505 Y99.493 E0.01730
G1 X151.163 Y109.151 E0.43564
G1 X151.163 Y109.694 E0.01730
G1 X140.962 Y99.493 E0.46011
G1 X140.420 Y99.493 E0.01730
G1 X151.163 Y110.236 E0.48457
G1 X151.163 Y110.507 E0.00865
G1 X150.892 Y110.507 E0.00865
G1 X140.149 Y99.764 E0.48457
G1 X140.149 Y100.307 E0.01730
G1 X150.350 Y110.507 E0.46010
G1 X149.807 Y110.507 E0.01730
G1 X140.149 Y100.849 E0.43564
G1 X140.149 Y101.391 E0.01730
G1 X149.265 Y110.507 E0.41117
G1 X148.722 Y110.507 E0.01730
G1 X140.149 Y101.934 E0.38670
G1 X140.149 Y102.476 E0.01730
G1 X148.180 Y110.507 E0.36223
G1 X147.637 Y110.507 E0.01730
G1 X140.149 Y103.019 E0.33777
G1 X140.149 Y103.561 E0.01730
G1 X147.095 Y110.507 E0.31330
G1 X147.063 Y110.507 E0.00101
G1 X147.063 Y111.018 E0.01629
G1 X139.638 Y103.593 E0.33492
G1 X139.095 Y103.593 E0.01730
G1 X147.063 Y111.561 E0.35939
G1 X147.063 Y112.103 E0.01730
G1 X138.553 Y103.593 E0.38385
G1 X138.011 Y103.593 E0.01730
G1 X147.063 Y112.645 E0.40832
G1 X147.063 Y113.188 E0.01730
G1 X137.468 Y103.593 E0.43279
G1 X137.149 Y103.593 E0.01018
G1 X137.149 Y103.816 E0.00712
G1 X139.740 Y106.407 E0.11688
G1 X139.198 Y106.407 E0.01730
G1 X137.149 Y104.358 E0.09241
G1 X137.149 Y104.901 E0.01730
G1 X138.655 Y106.407 E0.06795
G1 X138.113 Y106.407 E0.01730
G1 X137.149 Y105.443 E0.04348
G1 X137.149 Y105.986 E0.01730
G1 X137.740 Y106.577 E0.02666
G1 F8640
G1 X137.149 Y105.986 E-0.19304
G1 X137.149 Y105.443 E-0.12525
G1 X138.113 Y106.407 E-0.31477
G1 X138.655 Y106.407 E-0.12525
G1 X138.650 Y106.402 E-0.00168
G1 E-0.04000 F2100.00000
G1 Z0.800 F10800.000
G1 X139.979 Y109.901
G1 Z0.200
G1 E0.80000 F2100.00000
G1 F1200
G1 X140.585 Y110.507 E0.02735
G1 X141.128 Y110.507 E0.01730
G1 X140.149 Y109.528 E0.04416
G1 X140.149 Y108.986 E0.01730
G1 X141.670 Y110.507 E0.06863
M73 Q1 S97
G1 X142.213 Y110.507 E0.01730
G1 X140.149 Y108.443 E0.09309
G1 X140.149 Y107.901 E0.01730
G1 X142.755 Y110.507 E0.11756
G1 X143.298 Y110.507 E0.01730
G1 X140.149 Y107.358 E0.14203
M73 P1 R97
G1 X140.149 Y106.816 E0.01730
G1 X144.010 Y110.677 E0.17415
G1 F8640
G1 X141.682 Y108.350 E-0.76000
G1 E-0.04000 F2100.00000
G1 Z0.800 F10800.000
G1 X144.079 Y112.916
G1 Z0.200
G1 E0.80000 F2100.00000
G1 F1200
G1 X144.670 Y113.507 E0.02666
G1 X145.213 Y113.507 E0.01730
G1 X144.249 Y112.543 E0.04348
G1 X144.249 Y112.001 E0.01730
G1 X145.755 Y113.507 E0.06795
G1 X146.298 Y113.507 E0.01730
G1 X144.249 Y111.458 E0.09241
G1 X144.249 Y110.916 E0.01730
G1 X147.010 Y113.677 E0.12453
G1 F8640
G1 X144.682 Y111.350 E-0.76000
G1 E-0.04000 F2100.00000
G1 Z0.800 F10800.000
G1 X153.593 Y124.310
G1 Z0.200
G1 E0.80000 F2100.00000
G1 F1200
G1 X156.593 Y124.310 E0.09406
G1 X156.593 Y127.690 E0.10598
G1 X153.593 Y127.690 E0.09406
G1 X153.593 Y131.790 E0.12855
G1 X142.013 Y131.790 E0.36308
G1 X142.013 Y127.690 E0.12855
G1 X139.013 Y127.690 E0.09406
G1 X139.013 Y124.310 E0.10598
G1 X142.013 Y124.310 E0.09406
G1 X142.013 Y120.210 E0.12855
G1 X153.593 Y120.210 E0.36308
G1 X153.593 Y124.250 E0.12667
G1 X153.549 Y124.423 F10800.000
G1 F1200
G1 X156.310 Y127.184 E0.12454
G1 X156.310 Y126.642 E0.01730
G1 X154.261 Y124.593 E0.09242
G1 X154.804 Y124.593 E0.01730
G1 X156.310 Y126.099 E0.06795
G1 X156.310 Y125.557 E0.01730
G1 X155.346 Y124.593 E0.04348
G1 X155.888 Y124.593 E0.01730
G1 X156.480 Y125.184 E0.02667
G1 F8640
G1 X155.888 Y124.593 E-0.19307
G1 X155.346 Y124.593 E-0.12525
G1 X156.310 Y125.557 E-0.31480
G1 X156.310 Y126.099 E-0.12525
G1 X156.305 Y126.094 E-0.00162
G1 E-0.04000 F2100.00000
G1 Z0.800 F10800.000
G1 X153.480 Y121.099
G1 Z0.200
G1 E0.80000 F2100.00000
G1 F1200
G1 X152.873 Y120.493 E0.02735
G1 X152.331 Y120.493 E0.01730
G1 X153.310 Y121.472 E0.04416
G1 X153.310 Y122.014 E0.01730
G1 X151.788 Y120.493 E0.06863
G1 X151.246 Y120.493 E0.01730
G1 X153.310 Y122.557 E0.09310
G1 X153.310 Y123.099 E0.01730
G1 X150.704 Y120.493 E0.11757
G1 X150.161 Y120.493 E0.01730
G1 X153.310 Y123.642 E0.14203
G1 X153.310 Y124.184 E0.01730
G1 X149.619 Y120.493 E0.16650
G1 X149.076 Y120.493 E0.01730
G1 X155.991 Y127.407 E0.31188
G1 X155.448 Y127.407 E0.01730
G1 X148.534 Y120.493 E0.31188
G1 X147.991 Y120.493 E0.01730
G1 X154.906 Y127.407 E0.31188
G1 X154.363 Y127.407 E0.01730
G1 X147.449 Y120.493 E0.31188
G1 X146.906 Y120.493 E0.01730
G1 X153.821 Y127.407 E0.31188
G1 X153.310 Y127.407 E0.01629
G1 X153.310 Y127.439 E0.00101
G1 X146.364 Y120.493 E0.31330
G1 X145.821 Y120.493 E0.01730
G1 X153.310 Y127.981 E0.33777
G1 X153.310 Y128.524 E0.01730
G1 X145.279 Y120.493 E0.36224
G1 X144.737 Y120.493 E0.01730
G1 X153.310 Y129.066 E0.38671
G1 X153.310 Y129.609 E0.01730
G1 X144.194 Y120.493 E0.41117
G1 X143.652 Y120.493 E0.01730
G1 X153.310 Y130.151 E0.43564
G1 X153.310 Y130.694 E0.01730
G1 X143.109 Y120.493 E0.46011
G1 X142.567 Y120.493 E0.01730
G1 X153.310 Y131.236 E0.48457
G1 X153.310 Y131.507 E0.00865
G1 X153.039 Y131.507 E0.00865
G1 X142.296 Y120.764 E0.48457
G1 X142.296 Y121.307 E0.01730
G1 X152.496 Y131.507 E0.46010
G1 X151.954 Y131.507 E0.01730
G1 X142.296 Y121.849 E0.43564
G1 X142.296 Y122.391 E0.01730
G1 X151.411 Y131.507 E0.41117
G1 X150.869 Y131.507 E0.01730
G1 X142.296 Y122.934 E0.38670
G1 X142.296 Y123.476 E0.01730
G1 X150.326 Y131.507 E0.36223
G1 X149.784 Y131.507 E0.01730
G1 X142.296 Y124.019 E0.33777
G1 X142.296 Y124.561 E0.01730
G1 X149.242 Y131.507 E0.31330
G1 X148.699 Y131.507 E0.01730
G1 X141.785 Y124.593 E0.31188
G1 X141.242 Y124.593 E0.01730
G1 X148.157 Y131.507 E0.31188
G1 X147.614 Y131.507 E0.01730
G1 X140.700 Y124.593 E0.31188
G1 X140.157 Y124.593 E0.01730
G1 X147.072 Y131.507 E0.31188
G1 X146.529 Y131.507 E0.01730
G1 X139.615 Y124.593 E0.31188
G1 X139.296 Y124.593 E0.01018
G1 X139.296 Y124.816 E0.00712
G1 X141.887 Y127.407 E0.11688
G1 X141.344 Y127.407 E0.01730
G1 X139.296 Y125.358 E0.09241
G1 X139.296 Y125.901 E0.01730
G1 X140.802 Y127.407 E0.06795
G1 X140.260 Y127.407 E0.01730
G1 X139.296 Y126.443 E0.04348
G1 X139.296 Y126.986 E0.01730
G1 X139.887 Y127.577 E0.02666
G1 F8640
G1 X139.296 Y126.986 E-0.19304
G1 X139.296 Y126.443 E-0.12525
G1 X140.260 Y127.407 E-0.31477
G1 X140.802 Y127.407 E-0.12525
G1 X140.797 Y127.402 E-0.00168
G1 E-0.04000 F2100.00000
G1 Z0.800 F10800.000
G1 X142.126 Y130.901
G1 Z0.200
G1 E0.80000 F2100.00000
G1 F1200
G1 X142.732 Y131.507 E0.02735
G1 X143.275 Y131.507 E0.01730
G1 X142.296 Y130.528 E0.04416
G1 X142.296 Y129.986 E0.01730
G1 X143.817 Y131.507 E0.06863
G1 X144.360 Y131.507 E0.01730
G1 X142.296 Y129.443 E0.09309
G1 X142.296 Y128.901 E0.01730
G1 X144.902 Y131.507 E0.11756
G1 X145.444 Y131.507 E0.01730
G1 X142.296 Y128.358 E0.14203
G1 X142.296 Y127.816 E0.01730
G1 X146.157 Y131.677 E0.17415
G1 F8640
G1 X143.829 Y129.350 E-0.76000
G1 E-0.04000 F2100.00000
G1 Z0.800 F10800.000
G1 X110.987 Y118.657
G1 Z0.200
G1 E0.80000 F2100.00000
G1 F1200
G1 X107.987 Y118.657 E0.09406
G1 X107.987 Y122.757 E0.12855
G1 X103.887 Y122.757 E0.12855
G1 X103.887 Y125.757 E0.09406
G1 X100.507 Y125.757 E0.10598
G1 X100.507 Y122.757 E0.09406
G1 X96.407 Y122.757 E0.12855
G1 X96.407 Y118.657 E0.12855
G1 X93.407 Y118.657 E0.09406
G1 X93.407 Y115.277 E0.10598
G1 X96.407 Y115.277 E0.09406
G1 X96.407 Y111.177 E0.12855
G1 X107.987 Y111.177 E0.36308
G1 X107.987 Y115.277 E0.12855
G1 X110.987 Y115.277 E0.09406
G1 X110.987 Y118.597 E0.10410
G1 F8640
G1 X107.987 Y118.657 E-0.69285
G1 X107.987 Y118.948 E-0.06715
G1 E-0.04000 F2100.00000
G1 Z0.800 F10800.000
G1 X110.874 Y116.151
G1 Z0.200
G1 E0.80000 F2100.00000
G1 F1200
G1 X110.283 Y115.560 E0.02667
G1 X109.740 Y115.560 E0.01730
G1 X110.704 Y116.524 E0.04348
G1 X110.704 Y117.066 E0.01730
G1 X109.198 Y115.560 E0.06795
G1 X108.655 Y115.560 E0.01730
G1 X110.704 Y117.609 E0.09242
G1 X110.704 Y118.151 E0.01730
G1 X107.943 Y115.390 E0.12454
G1 F8640
G1 X110.271 Y117.717 E-0.76000
G1 E-0.04000 F2100.00000
G1 Z0.800 F10800.000
G1 X107.874 Y112.066
G1 Z0.200
G1 E0.80000 F2100.00000
G1 F1200
G1 X107.268 Y111.460 E0.02735
G1 X106.725 Y111.460 E0.01730
G1 X107.704 Y112.439 E0.04416
G1 X107.704 Y112.981 E0.01730
G1 X106.183 Y111.460 E0.06863
G1 X105.640 Y111.460 E0.01730
G1 X107.704 Y113.524 E0.09310
G1 X107.704 Y114.066 E0.01730
G1 X105.098 Y111.460 E0.11757
G1 X104.555 Y111.460 E0.01730
G1 X107.704 Y114.609 E0.14203
G1 X107.704 Y115.151 E0.01730
G1 X104.013 Y111.460 E0.16650
G1 X103.471 Y111.460 E0.01730
G1 X110.385 Y118.374 E0.31188
G1 X109.843 Y118.374 E0.01730
G1 X102.928 Y111.460 E0.31188
G1 X102.386 Y111.460 E0.01730
G1 X109.300 Y118.374 E0.31188
G1 X108.758 Y118.374 E0.01730
G1 X101.843 Y111.460 E0.31188
G1 X101.301 Y111.460 E0.01730
G1 X108.215 Y118.374 E0.31188
G1 X107.704 Y118.374 E0.01629
G1 X107.704 Y118.406 E0.00101
G1 X100.758 Y111.460 E0.31330
G1 X100.216 Y111.460 E0.01730
G1 X107.704 Y118.948 E0.33777
